;FLAVOR:Marlin
;TIME:13635
;Filament used: 9.70432m
;Layer height: 0.2
;MINX:27.15
;MINY:58.683
;MINZ:0.2
;MAXX:192.85
;MAXY:160.067
;MAXZ:8
;Generated with Cura_SteamEngine master
M140 S90
M105
M190 S90
M104 S240
M105
M109 S240
M82 ;absolute extrusion mode
; Ender 3 Custom Start G-code
G92 E0 ; Reset Extruder
G28 ; Home all axes
G1 Z2.0 F3000 ; Move Z Axis up little to prevent scratching of Heat Bed
G1 X0.1 Y20 Z0.3 F5000.0 ; Move to start position
G1 X0.1 Y200.0 Z0.3 F1500.0 E15 ; Draw the first line
G1 X0.4 Y200.0 Z0.3 F5000.0 ; Move to side a little
G1 X0.4 Y20 Z0.3 F1500.0 E30 ; Draw the second line
G92 E0 ; Reset Extruder
G1 Z2.0 F3000 ; Move Z Axis up little to prevent scratching of Heat Bed
G1 X5 Y20 Z0.3 F5000.0 ; Move over to prevent blob squish
G92 E0
G92 E0
G1 F2700 E-5
;LAYER_COUNT:40
;LAYER:0
M107
G0 F6000 X33.065 Y60.254 Z0.2
;TYPE:SKIRT
G1 F2700 E0
G1 F1200 X33.603 Y59.963 E0.02034
G1 X33.849 Y59.842 E0.02946
G1 X34.338 Y59.622 E0.0473
G1 X34.641 Y59.498 E0.05819
G1 X35.331 Y59.253 E0.08254
G1 X35.72 Y59.135 E0.09606
G1 X36.513 Y58.939 E0.12323
G1 X36.914 Y58.862 E0.13681
G1 X37.826 Y58.742 E0.1674
G1 X38.369 Y58.703 E0.18551
G1 X38.928 Y58.683 E0.20411
G1 X45.987 Y58.683 E0.4389
G1 X46.547 Y58.703 E0.45754
G1 X47.075 Y58.741 E0.47514
G1 X48.012 Y58.866 E0.50658
G1 X48.416 Y58.945 E0.52027
G1 X49.12 Y59.117 E0.54438
G1 X49.409 Y59.202 E0.5544
G1 X50.056 Y59.423 E0.57714
G1 X50.464 Y59.583 E0.59171
G1 X51.15 Y59.891 E0.61673
G1 X51.455 Y60.046 E0.6281
G1 X52.121 Y60.427 E0.65362
G1 X52.495 Y60.666 E0.66839
G1 X53.189 Y61.166 E0.69684
G1 X53.498 Y61.415 E0.71003
G1 X54.026 Y61.881 E0.73346
G1 X54.299 Y62.145 E0.74609
G1 X54.834 Y62.717 E0.77214
G1 X55.069 Y62.995 E0.78425
G1 X55.511 Y63.57 E0.80837
G1 X55.741 Y63.9 E0.82175
G1 X56.095 Y64.457 E0.8437
G1 X56.258 Y64.739 E0.85453
G1 X56.637 Y65.484 E0.88233
G1 X56.819 Y65.895 E0.89728
G1 X57.08 Y66.567 E0.92126
G1 X57.197 Y66.915 E0.93347
G1 X57.398 Y67.62 E0.95785
G1 X57.474 Y67.944 E0.96892
G1 X57.594 Y68.568 E0.99006
G1 X57.642 Y68.888 E1.00082
G1 X57.707 Y69.471 E1.02033
G1 X57.729 Y69.769 E1.03027
G1 X57.75 Y70.343 E1.04937
G1 X57.75 Y80.183 E1.37665
G1 X69.53 Y80.183 E1.76846
G1 X69.94 Y80.204 E1.78211
G1 X70.045 Y80.193 E1.78562
G1 X70.448 Y80.183 E1.79903
G1 X82.849 Y80.185 E2.21149
G1 X83.223 Y80.204 E2.22394
G1 X83.765 Y80.183 E2.24198
G1 X134.234 Y80.183 E3.92059
G1 X134.644 Y80.204 E3.93424
G1 X134.749 Y80.193 E3.93776
G1 X135.152 Y80.183 E3.95116
G1 X147.553 Y80.185 E4.36362
G1 X147.927 Y80.204 E4.37608
G1 X148.469 Y80.183 E4.39412
G1 X162.25 Y80.183 E4.85248
G1 X162.25 Y70.342 E5.17979
G1 X162.271 Y69.772 E5.19876
G1 X162.293 Y69.472 E5.20877
G1 X162.376 Y68.772 E5.23221
G1 X162.444 Y68.36 E5.2461
G1 X162.627 Y67.535 E5.27421
G1 X162.748 Y67.101 E5.28919
G1 X162.986 Y66.382 E5.31438
G1 X163.104 Y66.077 E5.32526
G1 X163.365 Y65.48 E5.34693
G1 X163.525 Y65.151 E5.3591
G1 X163.91 Y64.451 E5.38567
G1 X164.137 Y64.085 E5.39999
G1 X164.526 Y63.516 E5.42292
G1 X164.709 Y63.272 E5.43306
G1 X165.151 Y62.734 E5.45622
G1 X165.394 Y62.464 E5.4683
G1 X165.879 Y61.972 E5.49128
G1 X166.138 Y61.731 E5.50305
G1 X166.605 Y61.329 E5.52354
G1 X166.856 Y61.13 E5.5342
G1 X167.429 Y60.717 E5.55769
G1 X167.739 Y60.514 E5.57001
G1 X168.344 Y60.155 E5.59341
G1 X168.648 Y59.993 E5.60487
G1 X169.269 Y59.697 E5.62775
G1 X169.639 Y59.54 E5.64112
G1 X170.315 Y59.289 E5.6651
G1 X170.572 Y59.207 E5.67407
G1 X171.051 Y59.071 E5.69064
G1 X171.375 Y58.99 E5.70174
G1 X172.027 Y58.856 E5.72388
G1 X172.263 Y58.818 E5.73183
G1 X172.948 Y58.739 E5.75477
G1 X173.453 Y58.703 E5.77161
G1 X174.009 Y58.683 E5.79011
G1 X181.111 Y58.684 E6.02632
G1 X181.691 Y58.706 E6.04563
G1 X182.2 Y58.744 E6.06261
G1 X183.109 Y58.866 E6.09311
G1 X183.52 Y58.946 E6.10704
G1 X184.325 Y59.147 E6.13463
G1 X184.705 Y59.264 E6.14786
G1 X185.46 Y59.54 E6.17459
G1 X185.846 Y59.704 E6.18854
G1 X186.543 Y60.042 E6.21431
G1 X186.91 Y60.243 E6.22822
G1 X187.52 Y60.615 E6.25199
G1 X187.762 Y60.778 E6.26169
G1 X188.297 Y61.172 E6.28379
G1 X188.595 Y61.412 E6.29652
G1 X189.128 Y61.883 E6.32018
G1 X189.409 Y62.155 E6.33318
G1 X189.925 Y62.705 E6.35827
G1 X190.13 Y62.946 E6.36879
G1 X190.495 Y63.409 E6.3884
G1 X190.677 Y63.659 E6.39868
G1 X191.031 Y64.191 E6.41994
G1 X191.198 Y64.465 E6.43061
G1 X191.484 Y64.975 E6.45006
G1 X191.647 Y65.294 E6.46197
G1 X191.964 Y65.998 E6.48765
G1 X192.107 Y66.363 E6.50069
G1 X192.339 Y67.05 E6.52481
G1 X192.43 Y67.366 E6.53575
G1 X192.579 Y67.972 E6.5565
G1 X192.645 Y68.297 E6.56753
G1 X192.746 Y68.925 E6.58869
G1 X192.788 Y69.277 E6.60048
G1 X192.835 Y69.842 E6.61933
G1 X192.842 Y69.994 E6.6244
G1 X192.85 Y70.353 E6.63634
G1 X192.849 Y135.642 E8.80786
G1 X192.822 Y136.29 E8.82943
G1 X192.792 Y136.65 E8.84145
G1 X192.706 Y137.323 E8.86401
G1 X192.651 Y137.643 E8.87481
G1 X192.51 Y138.295 E8.897
G1 X192.424 Y138.624 E8.90831
G1 X192.231 Y139.254 E8.93022
G1 X192.117 Y139.576 E8.94159
G1 X191.864 Y140.202 E8.96404
G1 X191.703 Y140.556 E8.97698
G1 X191.293 Y141.338 E9.00634
G1 X191.052 Y141.74 E9.02193
G1 X190.618 Y142.388 E9.04787
G1 X190.408 Y142.67 E9.05957
G1 X189.957 Y143.221 E9.08325
G1 X189.712 Y143.494 E9.09545
G1 X189.242 Y143.974 E9.11779
G1 X188.986 Y144.214 E9.12947
G1 X188.488 Y144.643 E9.15133
G1 X188.235 Y144.843 E9.16205
G1 X187.676 Y145.246 E9.18497
G1 X187.368 Y145.448 E9.19723
G1 X186.791 Y145.792 E9.21957
G1 X186.496 Y145.951 E9.23071
G1 X185.916 Y146.233 E9.25216
G1 X185.632 Y146.357 E9.26247
G1 X185.029 Y146.591 E9.28398
G1 X184.686 Y146.708 E9.29604
G1 X184.048 Y146.896 E9.31816
G1 X183.75 Y146.97 E9.32837
G1 X183.213 Y147.084 E9.34663
G1 X182.967 Y147.127 E9.35494
G1 X182.182 Y147.223 E9.38124
G1 X181.624 Y147.263 E9.39985
G1 X181.065 Y147.283 E9.41845
G1 X174.003 Y147.282 E9.65334
G1 X173.425 Y147.26 E9.67257
G1 X172.901 Y147.221 E9.69005
G1 X171.976 Y147.097 E9.72109
G1 X171.569 Y147.017 E9.73489
G1 X170.898 Y146.854 E9.75785
G1 X170.619 Y146.773 E9.76752
G1 X170.053 Y146.584 E9.78736
G1 X169.744 Y146.468 E9.79834
G1 X169.107 Y146.197 E9.82137
G1 X168.774 Y146.037 E9.83365
G1 X168.778 Y146.03 E9.83392
G1 X168.025 Y145.627 E9.86233
G1 X167.637 Y145.386 E9.87752
G1 X167.055 Y144.986 E9.90101
G1 X166.839 Y144.823 E9.91001
G1 X166.373 Y144.443 E9.93001
G1 X166.107 Y144.208 E9.94181
G1 X165.557 Y143.672 E9.96736
G1 X165.255 Y143.347 E9.98211
G1 X164.766 Y142.766 E10.00737
G1 X164.58 Y142.522 E10.01757
G1 X164.183 Y141.95 E10.04073
G1 X163.938 Y141.561 E10.05602
G1 X163.511 Y140.79 E10.08534
G1 X163.351 Y140.458 E10.09759
G1 X163.101 Y139.881 E10.11851
G1 X162.979 Y139.565 E10.12978
G1 X162.75 Y138.877 E10.15389
G1 X162.648 Y138.516 E10.16637
G1 X162.489 Y137.839 E10.1895
G1 X162.421 Y137.478 E10.20172
G1 X162.33 Y136.861 E10.22246
G1 X162.301 Y136.589 E10.23156
G1 X162.268 Y136.175 E10.24537
G1 X162.261 Y136.043 E10.24977
G1 X162.25 Y135.63 E10.26351
G1 X162.25 Y125.783 E10.59102
G1 X148.469 Y125.783 E11.04938
G1 X147.68 Y125.743 E11.07566
G1 X146.907 Y125.625 E11.10166
G1 X135.763 Y125.625 E11.47232
G1 X135.613 Y125.66 E11.47744
G1 X134.829 Y125.76 E11.50373
G1 X134.234 Y125.783 E11.52353
G1 X83.765 Y125.783 E13.20214
G1 X82.976 Y125.743 E13.22841
G1 X82.203 Y125.625 E13.25442
G1 X71.059 Y125.625 E13.62507
G1 X70.909 Y125.66 E13.63019
G1 X70.125 Y125.76 E13.65648
G1 X69.53 Y125.783 E13.67629
G1 X57.75 Y125.783 E14.06809
G1 X57.75 Y150.274 E14.88266
G1 X57.729 Y150.684 E14.89632
G1 X57.74 Y150.789 E14.89983
G1 X57.75 Y151.191 E14.9132
G1 X57.75 Y152.15 E14.9451
G1 X57.71 Y152.939 E14.97138
G1 X57.591 Y153.719 E14.99762
G1 X57.393 Y154.484 E15.0239
G1 X57.119 Y155.224 E15.05015
G1 X56.771 Y155.933 E15.07642
G1 X56.353 Y156.604 E15.10271
G1 X55.87 Y157.228 E15.12896
G1 X55.465 Y157.665 E15.14877
G1 X55.348 Y157.782 E15.15428
G1 X54.762 Y158.312 E15.18056
G1 X54.126 Y158.779 E15.2068
G1 X53.446 Y159.18 E15.23306
G1 X52.728 Y159.51 E15.25934
G1 X51.981 Y159.765 E15.28559
G1 X51.212 Y159.944 E15.31185
G1 X50.428 Y160.044 E15.33814
G1 X49.833 Y160.067 E15.35794
G1 X35.067 Y160.067 E15.84906
G1 X34.278 Y160.027 E15.87534
G1 X33.498 Y159.908 E15.90158
G1 X32.733 Y159.71 E15.92786
G1 X31.993 Y159.436 E15.95411
G1 X31.284 Y159.088 E15.98038
G1 X30.613 Y158.67 E16.00667
G1 X29.989 Y158.187 E16.03292
G1 X29.552 Y157.782 E16.05273
G1 X29.435 Y157.665 E16.05824
G1 X28.905 Y157.079 E16.08452
G1 X28.438 Y156.443 E16.11076
G1 X28.037 Y155.763 E16.13702
G1 X27.707 Y155.045 E16.1633
G1 X27.452 Y154.298 E16.18955
G1 X27.273 Y153.529 E16.21581
G1 X27.173 Y152.745 E16.2421
G1 X27.15 Y152.15 E16.26191
G1 X27.15 Y151.191 E16.2938
G1 X27.17 Y150.789 E16.30719
G1 X27.15 Y150.274 E16.32433
G1 X27.15 Y70.342 E18.98288
G1 X27.171 Y69.77 E19.00192
G1 X27.193 Y69.471 E19.01189
G1 X27.268 Y68.822 E19.03362
G1 X27.326 Y68.456 E19.04594
G1 X27.445 Y67.857 E19.06626
G1 X27.511 Y67.582 E19.07566
G1 X27.696 Y66.935 E19.09804
G1 X27.816 Y66.575 E19.11067
G1 X28.078 Y65.898 E19.13481
G1 X28.222 Y65.571 E19.14669
G1 X28.486 Y65.029 E19.16675
G1 X28.612 Y64.794 E19.17561
G1 X28.873 Y64.344 E19.19292
G1 X29.025 Y64.101 E19.20245
G1 X29.356 Y63.614 E19.22203
G1 X29.565 Y63.33 E19.23376
G1 X30.086 Y62.694 E19.26111
G1 X30.369 Y62.384 E19.27507
G1 X30.946 Y61.815 E19.30202
G1 X31.263 Y61.533 E19.31613
G1 X31.852 Y61.058 E19.3413
G1 X32.173 Y60.824 E19.35451
G1 X32.787 Y60.419 E19.37898
G1 X33.065 Y60.254 E19.38973
G0 F6000 X33.269 Y60.598
G1 F1200 X33.78 Y60.322 E19.40905
G1 X34.026 Y60.201 E19.41816
G1 X34.489 Y59.992 E19.43506
G1 X34.792 Y59.868 E19.44595
G1 X35.447 Y59.636 E19.46906
G1 X35.836 Y59.518 E19.48258
G1 X36.589 Y59.332 E19.50838
G1 X36.99 Y59.255 E19.52196
G1 X37.855 Y59.141 E19.55098
G1 X38.398 Y59.102 E19.56908
G1 X38.928 Y59.083 E19.58672
G1 X45.987 Y59.083 E19.82151
G1 X46.518 Y59.102 E19.83918
G1 X47.046 Y59.14 E19.85679
G1 X47.935 Y59.259 E19.88662
G1 X48.339 Y59.338 E19.90031
G1 X49.007 Y59.501 E19.92318
G1 X49.296 Y59.586 E19.9332
G1 X49.91 Y59.796 E19.95478
G1 X50.318 Y59.956 E19.96936
G1 X50.969 Y60.248 E19.99309
G1 X51.274 Y60.403 E20.00447
G1 X51.906 Y60.764 E20.02868
G1 X52.28 Y61.003 E20.04344
G1 X52.938 Y61.477 E20.07041
G1 X53.247 Y61.726 E20.08361
G1 X53.748 Y62.168 E20.10583
G1 X54.021 Y62.432 E20.11846
G1 X54.528 Y62.975 E20.14317
G1 X54.763 Y63.253 E20.15528
G1 X55.183 Y63.799 E20.17819
G1 X55.413 Y64.129 E20.19157
G1 X55.749 Y64.657 E20.21238
G1 X55.912 Y64.939 E20.22322
G1 X56.271 Y65.646 E20.24959
G1 X56.453 Y66.057 E20.26454
G1 X56.701 Y66.695 E20.28731
G1 X56.818 Y67.043 E20.29952
G1 X57.008 Y67.711 E20.32262
G1 X57.084 Y68.035 E20.33369
G1 X57.198 Y68.627 E20.35374
G1 X57.246 Y68.947 E20.3645
G1 X57.308 Y69.5 E20.38301
G1 X57.33 Y69.798 E20.39295
G1 X57.35 Y70.343 E20.41109
G1 X57.35 Y80.583 E20.75167
G1 X69.53 Y80.583 E21.15678
G1 X70.012 Y80.608 E21.17283
G1 X70.448 Y80.583 E21.18736
G1 X82.849 Y80.585 E21.59981
G1 X83.244 Y80.606 E21.61297
G1 X83.34 Y80.595 E21.61618
G1 X83.765 Y80.583 E21.63033
G1 X134.234 Y80.583 E23.30893
G1 X134.716 Y80.608 E23.32498
G1 X135.152 Y80.583 E23.33951
G1 X147.553 Y80.585 E23.75197
G1 X147.948 Y80.606 E23.76513
G1 X148.044 Y80.595 E23.76834
G1 X148.469 Y80.583 E23.78248
G1 X162.65 Y80.583 E24.25414
G1 X162.65 Y70.342 E24.59476
G1 X162.67 Y69.801 E24.61277
G1 X162.692 Y69.501 E24.62277
G1 X162.771 Y68.837 E24.64501
G1 X162.839 Y68.425 E24.6589
G1 X163.012 Y67.643 E24.68554
G1 X163.133 Y67.209 E24.70052
G1 X163.36 Y66.526 E24.72446
G1 X163.478 Y66.221 E24.73534
G1 X163.724 Y65.655 E24.75586
G1 X163.884 Y65.326 E24.76803
G1 X164.25 Y64.662 E24.79325
G1 X164.477 Y64.296 E24.80757
G1 X164.846 Y63.756 E24.82933
G1 X165.029 Y63.512 E24.83947
G1 X165.449 Y63.002 E24.86145
G1 X165.692 Y62.732 E24.87353
G1 X166.151 Y62.265 E24.89531
G1 X166.41 Y62.024 E24.90707
G1 X166.854 Y61.642 E24.92656
G1 X167.105 Y61.443 E24.93721
G1 X167.648 Y61.051 E24.95948
G1 X167.958 Y60.848 E24.97181
G1 X168.532 Y60.508 E24.994
G1 X168.836 Y60.346 E25.00545
G1 X169.425 Y60.065 E25.02716
G1 X169.795 Y59.908 E25.04053
G1 X170.437 Y59.67 E25.0633
G1 X170.694 Y59.588 E25.07227
G1 X171.148 Y59.459 E25.08797
G1 X171.472 Y59.378 E25.09908
G1 X172.091 Y59.251 E25.1201
G1 X172.327 Y59.213 E25.12805
G1 X172.977 Y59.138 E25.14981
G1 X173.482 Y59.102 E25.16665
G1 X174.009 Y59.083 E25.18419
G1 X181.111 Y59.084 E25.4204
G1 X181.661 Y59.105 E25.43871
G1 X182.17 Y59.143 E25.45568
G1 X183.033 Y59.258 E25.48464
G1 X183.444 Y59.338 E25.49857
G1 X184.208 Y59.53 E25.52477
G1 X184.588 Y59.647 E25.53799
G1 X185.304 Y59.908 E25.56334
G1 X185.69 Y60.072 E25.57729
G1 X186.351 Y60.393 E25.60173
G1 X186.718 Y60.594 E25.61565
G1 X187.297 Y60.946 E25.63818
G1 X187.539 Y61.109 E25.64789
G1 X188.047 Y61.484 E25.66889
G1 X188.345 Y61.724 E25.68162
G1 X188.85 Y62.17 E25.70402
G1 X189.131 Y62.442 E25.71703
G1 X189.621 Y62.964 E25.74084
G1 X189.826 Y63.205 E25.75137
G1 X190.172 Y63.645 E25.76999
G1 X190.354 Y63.895 E25.78027
G1 X190.69 Y64.399 E25.80042
G1 X190.857 Y64.673 E25.81109
G1 X191.128 Y65.157 E25.82954
G1 X191.291 Y65.476 E25.84145
G1 X191.591 Y66.144 E25.86581
G1 X191.734 Y66.509 E25.87885
G1 X191.955 Y67.16 E25.90171
G1 X192.046 Y67.476 E25.91265
G1 X192.187 Y68.051 E25.93234
G1 X192.253 Y68.376 E25.94337
G1 X192.349 Y68.972 E25.96345
G1 X192.391 Y69.324 E25.97524
G1 X192.435 Y69.861 E25.99316
G1 X192.442 Y70.013 E25.99822
G1 X192.45 Y70.353 E26.00954
G1 X192.449 Y135.642 E28.18106
G1 X192.423 Y136.257 E28.20153
G1 X192.393 Y136.617 E28.21354
G1 X192.312 Y137.255 E28.23493
G1 X192.257 Y137.575 E28.24573
G1 X192.123 Y138.193 E28.26677
G1 X192.037 Y138.522 E28.27808
G1 X191.854 Y139.121 E28.29891
G1 X191.74 Y139.443 E28.31027
G1 X191.5 Y140.037 E28.33158
G1 X191.339 Y140.391 E28.34451
G1 X190.95 Y141.132 E28.37235
G1 X190.709 Y141.534 E28.38794
G1 X190.297 Y142.149 E28.41256
G1 X190.087 Y142.431 E28.42425
G1 X189.659 Y142.954 E28.44673
G1 X189.414 Y143.227 E28.45893
G1 X188.968 Y143.683 E28.48014
G1 X188.712 Y143.923 E28.49182
G1 X188.24 Y144.329 E28.51252
G1 X187.987 Y144.529 E28.52325
G1 X187.456 Y144.912 E28.54503
G1 X187.148 Y145.114 E28.55728
G1 X186.601 Y145.44 E28.57846
G1 X186.306 Y145.599 E28.5896
G1 X185.756 Y145.867 E28.60995
G1 X185.472 Y145.991 E28.62026
G1 X184.9 Y146.213 E28.64067
G1 X184.557 Y146.33 E28.65272
G1 X183.951 Y146.508 E28.67373
G1 X183.653 Y146.582 E28.68394
G1 X183.144 Y146.689 E28.70124
G1 X182.898 Y146.732 E28.70954
G1 X182.153 Y146.824 E28.73451
G1 X181.595 Y146.864 E28.75312
G1 X181.065 Y146.883 E28.77076
G1 X174.003 Y146.882 E29.00564
G1 X173.455 Y146.862 E29.02388
G1 X172.931 Y146.823 E29.04136
G1 X172.053 Y146.704 E29.07083
G1 X171.646 Y146.624 E29.08462
G1 X171.01 Y146.47 E29.10639
G1 X170.731 Y146.389 E29.11605
G1 X170.193 Y146.21 E29.13491
G1 X169.884 Y146.094 E29.14588
G1 X169.28 Y145.836 E29.16773
G1 X168.947 Y145.676 E29.18002
G1 X168.95 Y145.669 E29.18027
G1 X168.236 Y145.287 E29.2072
G1 X167.848 Y145.046 E29.2224
G1 X167.296 Y144.667 E29.24467
G1 X167.08 Y144.504 E29.25367
G1 X166.638 Y144.143 E29.27265
G1 X166.372 Y143.908 E29.28445
G1 X165.85 Y143.399 E29.3087
G1 X165.548 Y143.074 E29.32346
G1 X165.084 Y142.523 E29.34742
G1 X164.898 Y142.279 E29.35762
G1 X164.521 Y141.737 E29.37958
G1 X164.276 Y141.348 E29.39487
G1 X163.872 Y140.617 E29.42265
G1 X163.712 Y140.285 E29.43491
G1 X163.475 Y139.737 E29.45477
G1 X163.353 Y139.421 E29.46603
G1 X163.135 Y138.768 E29.48893
G1 X163.033 Y138.407 E29.50141
G1 X162.882 Y137.765 E29.52334
G1 X162.814 Y137.404 E29.53556
G1 X162.728 Y136.819 E29.55523
G1 X162.699 Y136.547 E29.56432
G1 X162.667 Y136.154 E29.57744
G1 X162.66 Y136.022 E29.58184
G1 X162.65 Y135.63 E29.59488
G1 X162.65 Y125.383 E29.93569
G1 X148.469 Y125.383 E30.40736
G1 X147.701 Y125.343 E30.43293
G1 X146.947 Y125.225 E30.45832
G1 X135.71 Y125.225 E30.83206
G1 X135.424 Y125.287 E30.8418
G1 X134.659 Y125.371 E30.86739
G1 X134.234 Y125.383 E30.88153
G1 X83.765 Y125.383 E32.56014
G1 X82.997 Y125.343 E32.58572
G1 X82.243 Y125.225 E32.6111
G1 X71.006 Y125.225 E32.98485
G1 X70.72 Y125.287 E32.99458
G1 X69.955 Y125.371 E33.02018
G1 X69.53 Y125.383 E33.03432
G1 X57.35 Y125.383 E33.43943
G1 X57.35 Y150.274 E34.2673
