;FLAVOR:Marlin
;TIME:7388
;Filament used: 5.42102m
;Layer height: 0.2
;MINX:72.2
;MINY:73.828
;MINZ:0.2
;MAXX:147.8
;MAXY:129.425
;MAXZ:15
;Generated with Cura_SteamEngine master
M140 S90
M105
M190 S90
M104 S240
M105
M109 S240
M82 ;absolute extrusion mode
; Ender 3 Custom Start G-code
G92 E0 ; Reset Extruder
G28 ; Home all axes
G1 Z2.0 F3000 ; Move Z Axis up little to prevent scratching of Heat Bed
G1 X0.1 Y20 Z0.3 F5000.0 ; Move to start position
G1 X0.1 Y200.0 Z0.3 F1500.0 E15 ; Draw the first line
G1 X0.4 Y200.0 Z0.3 F5000.0 ; Move to side a little
G1 X0.4 Y20 Z0.3 F1500.0 E30 ; Draw the second line
G92 E0 ; Reset Extruder
G1 Z2.0 F3000 ; Move Z Axis up little to prevent scratching of Heat Bed
G1 X5 Y20 Z0.3 F5000.0 ; Move over to prevent blob squish
G92 E0
G92 E0
G1 F2700 E-5
;LAYER_COUNT:75
;LAYER:0
M107
G0 F6000 X74.602 Y76.113 Z0.2
;TYPE:SKIRT
G1 F2700 E0
G1 F1200 X75.188 Y75.583 E0.02628
G1 X75.824 Y75.116 E0.05252
G1 X76.504 Y74.715 E0.07878
G1 X77.222 Y74.385 E0.10506
G1 X77.969 Y74.13 E0.13132
G1 X78.738 Y73.951 E0.15758
G1 X79.522 Y73.851 E0.18386
G1 X80.117 Y73.828 E0.20367
G1 X139.883 Y73.828 E2.19149
G1 X140.672 Y73.868 E2.21777
G1 X141.452 Y73.987 E2.24401
G1 X142.217 Y74.185 E2.27029
G1 X142.957 Y74.459 E2.29654
G1 X143.666 Y74.807 E2.32281
G1 X144.337 Y75.225 E2.3491
G1 X144.961 Y75.708 E2.37535
G1 X145.398 Y76.113 E2.39516
G1 X145.515 Y76.23 E2.40067
G1 X146.045 Y76.816 E2.42695
G1 X146.512 Y77.452 E2.45319
G1 X146.913 Y78.132 E2.47945
G1 X147.243 Y78.85 E2.50573
G1 X147.498 Y79.597 E2.53198
G1 X147.677 Y80.366 E2.55824
G1 X147.777 Y81.15 E2.58453
G1 X147.8 Y81.745 E2.60434
G1 X147.8 Y85.583 E2.73199
G1 X147.78 Y85.98 E2.74521
G1 X147.8 Y86.5 E2.76252
G1 X147.8 Y96.506 E3.09532
G1 X147.76 Y97.295 E3.12159
G1 X147.641 Y98.075 E3.14784
G1 X147.443 Y98.84 E3.17412
G1 X147.169 Y99.58 E3.20037
G1 X146.821 Y100.289 E3.22663
G1 X146.403 Y100.96 E3.25293
G1 X145.92 Y101.584 E3.27917
G1 X145.515 Y102.021 E3.29899
G1 X145.398 Y102.138 E3.30449
G1 X144.812 Y102.668 E3.33077
G1 X144.176 Y103.135 E3.35702
G1 X143.496 Y103.536 E3.38327
G1 X142.778 Y103.866 E3.40956
G1 X142.031 Y104.121 E3.43581
G1 X141.262 Y104.3 E3.46207
G1 X140.478 Y104.4 E3.48836
G1 X139.883 Y104.423 E3.50816
G1 X132.639 Y104.423 E3.7491
G1 X132.639 Y114.003 E4.06773
G1 X132.677 Y114.166 E4.0733
G1 X132.777 Y114.95 E4.09958
G1 X132.8 Y115.545 E4.11939
G1 X132.8 Y121.508 E4.31772
G1 X132.76 Y122.297 E4.34399
G1 X132.641 Y123.077 E4.37024
G1 X132.443 Y123.842 E4.39652
G1 X132.169 Y124.582 E4.42277
G1 X131.821 Y125.291 E4.44903
G1 X131.403 Y125.962 E4.47533
G1 X130.92 Y126.586 E4.50157
G1 X130.515 Y127.023 E4.52139
G1 X130.398 Y127.14 E4.52689
G1 X129.812 Y127.67 E4.55317
G1 X129.176 Y128.137 E4.57942
G1 X128.496 Y128.538 E4.60567
G1 X127.778 Y128.868 E4.63196
G1 X127.031 Y129.123 E4.65821
G1 X126.262 Y129.302 E4.68447
G1 X125.478 Y129.402 E4.71076
G1 X124.883 Y129.425 E4.73056
G1 X95.117 Y129.425 E5.72058
G1 X94.328 Y129.385 E5.74686
G1 X93.548 Y129.266 E5.7731
G1 X92.783 Y129.068 E5.79938
G1 X92.043 Y128.794 E5.82563
G1 X91.334 Y128.446 E5.8519
G1 X90.663 Y128.028 E5.87819
G1 X90.039 Y127.545 E5.90444
G1 X89.602 Y127.14 E5.92425
G1 X89.485 Y127.023 E5.92976
G1 X88.955 Y126.437 E5.95604
G1 X88.488 Y125.801 E5.98228
G1 X88.087 Y125.121 E6.00854
G1 X87.757 Y124.403 E6.03482
G1 X87.502 Y123.656 E6.06107
G1 X87.323 Y122.887 E6.08733
G1 X87.223 Y122.103 E6.11362
G1 X87.2 Y121.508 E6.13342
G1 X87.2 Y115.545 E6.33176
G1 X87.24 Y114.756 E6.35803
G1 X87.361 Y113.968 E6.38455
G1 X87.362 Y104.423 E6.70202
G1 X80.117 Y104.423 E6.94298
G1 X79.328 Y104.383 E6.96926
G1 X78.548 Y104.264 E6.9955
G1 X77.783 Y104.066 E7.02179
G1 X77.043 Y103.792 E7.04803
G1 X76.334 Y103.444 E7.0743
G1 X75.663 Y103.026 E7.10059
G1 X75.039 Y102.543 E7.12684
G1 X74.602 Y102.138 E7.14666
G1 X74.485 Y102.021 E7.15216
G1 X73.955 Y101.435 E7.17844
G1 X73.488 Y100.799 E7.20468
G1 X73.087 Y100.119 E7.23094
G1 X72.757 Y99.401 E7.25722
G1 X72.502 Y98.654 E7.28348
G1 X72.323 Y97.885 E7.30974
G1 X72.223 Y97.101 E7.33602
G1 X72.2 Y96.506 E7.35583
G1 X72.2 Y86.5 E7.68863
G1 X72.221 Y86.09 E7.70228
G1 X72.21 Y85.985 E7.70579
G1 X72.2 Y85.583 E7.71917
G1 X72.2 Y81.745 E7.84682
G1 X72.24 Y80.956 E7.8731
G1 X72.359 Y80.176 E7.89934
G1 X72.557 Y79.411 E7.92562
G1 X72.831 Y78.671 E7.95187
G1 X73.179 Y77.962 E7.97814
G1 X73.597 Y77.291 E8.00443
G1 X74.08 Y76.667 E8.03068
G1 X74.485 Y76.23 E8.05049
G1 X74.602 Y76.113 E8.056
G0 F6000 X74.884 Y76.395
G1 F1200 X75.456 Y75.881 E8.08157
G1 X76.078 Y75.428 E8.10717
G1 X76.743 Y75.042 E8.13274
G1 X77.445 Y74.727 E8.15833
G1 X78.176 Y74.487 E8.18392
G1 X78.927 Y74.324 E8.20948
G1 X79.692 Y74.24 E8.23508
G1 X80.117 Y74.228 E8.24922
G1 X139.883 Y74.228 E10.23705
G1 X140.651 Y74.268 E10.26262
G1 X141.411 Y74.387 E10.28821
G1 X142.154 Y74.585 E10.31378
G1 X142.873 Y74.859 E10.33938
G1 X143.559 Y75.206 E10.36495
G1 X144.206 Y75.622 E10.39053
G1 X144.806 Y76.103 E10.41611
G1 X145.116 Y76.395 E10.43027
G1 X145.233 Y76.512 E10.43577
G1 X145.747 Y77.084 E10.46135
G1 X146.2 Y77.706 E10.48694
G1 X146.586 Y78.371 E10.51252
G1 X146.901 Y79.073 E10.53811
G1 X147.141 Y79.804 E10.5637
G1 X147.304 Y80.555 E10.58926
G1 X147.388 Y81.32 E10.61486
G1 X147.4 Y81.745 E10.629
G1 X147.4 Y85.583 E10.75665
G1 X147.379 Y85.991 E10.77024
G1 X147.388 Y86.075 E10.77305
G1 X147.4 Y86.5 E10.78719
G1 X147.4 Y96.506 E11.11999
G1 X147.36 Y97.274 E11.14557
G1 X147.241 Y98.034 E11.17115
G1 X147.043 Y98.777 E11.19673
G1 X146.769 Y99.496 E11.22232
G1 X146.422 Y100.182 E11.24789
G1 X146.006 Y100.829 E11.27347
G1 X145.525 Y101.429 E11.29905
G1 X145.233 Y101.739 E11.31322
G1 X145.116 Y101.856 E11.31872
G1 X144.544 Y102.37 E11.3443
G1 X143.922 Y102.823 E11.36989
G1 X143.257 Y103.209 E11.39546
G1 X142.555 Y103.524 E11.42105
G1 X141.824 Y103.764 E11.44664
G1 X141.073 Y103.927 E11.4722
G1 X140.308 Y104.011 E11.4978
G1 X139.883 Y104.023 E11.51194
G1 X132.239 Y104.023 E11.76618
G1 X132.239 Y114.056 E12.09988
G1 X132.304 Y114.355 E12.11006
G1 X132.388 Y115.12 E12.13566
G1 X132.4 Y115.545 E12.1498
G1 X132.4 Y121.508 E12.34813
G1 X132.36 Y122.276 E12.37371
G1 X132.241 Y123.036 E12.39929
G1 X132.043 Y123.779 E12.42487
G1 X131.769 Y124.498 E12.45046
G1 X131.422 Y125.184 E12.47603
G1 X131.006 Y125.831 E12.50161
G1 X130.525 Y126.431 E12.52719
G1 X130.233 Y126.741 E12.54135
G1 X130.116 Y126.858 E12.54686
G1 X129.544 Y127.372 E12.57243
G1 X128.922 Y127.825 E12.59803
G1 X128.257 Y128.211 E12.6236
G1 X127.555 Y128.526 E12.64919
G1 X126.824 Y128.766 E12.67478
G1 X126.073 Y128.929 E12.70034
G1 X125.308 Y129.013 E12.72594
G1 X124.883 Y129.025 E12.74008
G1 X95.117 Y129.025 E13.7301
G1 X94.349 Y128.985 E13.75568
G1 X93.589 Y128.866 E13.78126
G1 X92.846 Y128.668 E13.80684
G1 X92.127 Y128.394 E13.83243
G1 X91.441 Y128.047 E13.858
G1 X90.794 Y127.631 E13.88358
G1 X90.194 Y127.15 E13.90916
G1 X89.884 Y126.858 E13.92333
G1 X89.767 Y126.741 E13.92883
G1 X89.253 Y126.169 E13.95441
G1 X88.8 Y125.547 E13.98
G1 X88.414 Y124.882 E14.00557
G1 X88.099 Y124.18 E14.03116
G1 X87.859 Y123.449 E14.05675
G1 X87.696 Y122.698 E14.08231
G1 X87.612 Y121.933 E14.10791
G1 X87.6 Y121.508 E14.12205
G1 X87.6 Y115.545 E14.32038
G1 X87.64 Y114.777 E14.34596
G1 X87.761 Y114.009 E14.37182
G1 X87.762 Y104.023 E14.70396
G1 X80.117 Y104.023 E14.95823
G1 X79.349 Y103.983 E14.98381
G1 X78.589 Y103.864 E15.00939
G1 X77.846 Y103.666 E15.03497
G1 X77.127 Y103.392 E15.06056
G1 X76.441 Y103.045 E15.08613
G1 X75.794 Y102.629 E15.11171
G1 X75.194 Y102.148 E15.13729
G1 X74.884 Y101.856 E15.15145
G1 X74.767 Y101.739 E15.15696
G1 X74.253 Y101.167 E15.18254
G1 X73.8 Y100.545 E15.20813
G1 X73.414 Y99.88 E15.2337
G1 X73.099 Y99.178 E15.25929
G1 X72.859 Y98.447 E15.28488
G1 X72.696 Y97.696 E15.31044
G1 X72.612 Y96.931 E15.33604
G1 X72.6 Y96.506 E15.35018
G1 X72.6 Y86.5 E15.68298
G1 X72.625 Y86.018 E15.69904
G1 X72.6 Y85.583 E15.71353
G1 X72.6 Y81.745 E15.84118
G1 X72.64 Y80.977 E15.86676
G1 X72.759 Y80.217 E15.89234
G1 X72.957 Y79.474 E15.91792
G1 X73.231 Y78.755 E15.94351
G1 X73.578 Y78.069 E15.96908
G1 X73.994 Y77.422 E15.99466
G1 X74.475 Y76.822 E16.02024
G1 X74.767 Y76.512 E16.0344
G1 X74.884 Y76.395 E16.03991
G0 F6000 X75.167 Y76.678
G1 F1200 X75.724 Y76.178 E16.0648
G1 X76.33 Y75.741 E16.08965
G1 X76.98 Y75.37 E16.11455
G1 X77.666 Y75.071 E16.13944
G1 X78.38 Y74.847 E16.16432
G1 X79.113 Y74.7 E16.18919
G1 X80.117 Y74.628 E16.22267
G1 X139.883 Y74.628 E18.21049
G1 X140.63 Y74.668 E18.23537
G1 X141.368 Y74.787 E18.26024
G1 X142.09 Y74.985 E18.28514
G1 X142.786 Y75.258 E18.31
G1 X143.449 Y75.605 E18.33489
G1 X144.072 Y76.02 E18.35979
G1 X144.833 Y76.678 E18.39325
G1 X144.95 Y76.795 E18.39875
G1 X145.45 Y77.352 E18.42365
G1 X145.887 Y77.958 E18.4485
G1 X146.258 Y78.608 E18.47339
G1 X146.557 Y79.294 E18.49828
G1 X146.781 Y80.008 E18.52317
G1 X146.928 Y80.741 E18.54804
G1 X147 Y81.745 E18.58151
G1 X147 Y85.583 E18.70917
G1 X146.972 Y86.108 E18.72665
G1 X147 Y86.5 E18.73972
G1 X147 Y96.506 E19.07253
G1 X146.96 Y97.253 E19.09741
G1 X146.841 Y97.991 E19.12227
G1 X146.643 Y98.713 E19.14717
G1 X146.37 Y99.409 E19.17204
G1 X146.023 Y100.072 E19.19693
G1 X145.608 Y100.695 E19.22182
G1 X144.95 Y101.456 E19.25528
G1 X144.833 Y101.573 E19.26079
G1 X144.276 Y102.073 E19.28568
G1 X143.67 Y102.51 E19.31053
G1 X143.02 Y102.881 E19.33542
G1 X142.334 Y103.18 E19.36031
G1 X141.62 Y103.404 E19.3852
G1 X140.887 Y103.551 E19.41007
G1 X139.883 Y103.623 E19.44355
G1 X131.839 Y103.623 E19.71109
G1 X131.839 Y114.097 E20.05946
G1 X131.928 Y114.541 E20.07452
G1 X132 Y115.545 E20.108
G1 X132 Y121.508 E20.30633
G1 X131.96 Y122.255 E20.33121
G1 X131.841 Y122.993 E20.35607
G1 X131.643 Y123.715 E20.38097
G1 X131.37 Y124.411 E20.40584
G1 X131.023 Y125.074 E20.43073
G1 X130.608 Y125.697 E20.45563
G1 X129.95 Y126.458 E20.48909
G1 X129.833 Y126.575 E20.49459
G1 X129.276 Y127.075 E20.51948
G1 X128.67 Y127.512 E20.54433
G1 X128.02 Y127.883 E20.56923
G1 X127.334 Y128.182 E20.59412
G1 X126.62 Y128.406 E20.61901
G1 X125.887 Y128.553 E20.64387
G1 X124.883 Y128.625 E20.67735
G1 X95.117 Y128.625 E21.66737
G1 X94.37 Y128.585 E21.69225
G1 X93.632 Y128.466 E21.71711
G1 X92.91 Y128.268 E21.74201
G1 X92.214 Y127.995 E21.76688
G1 X91.551 Y127.648 E21.79177
G1 X90.928 Y127.233 E21.81667
G1 X90.167 Y126.575 E21.85013
G1 X90.05 Y126.458 E21.85563
G1 X89.55 Y125.901 E21.88053
G1 X89.113 Y125.295 E21.90538
G1 X88.742 Y124.645 E21.93027
G1 X88.443 Y123.959 E21.95516
G1 X88.219 Y123.245 E21.98005
G1 X88.072 Y122.512 E22.00491
G1 X88 Y121.508 E22.03839
G1 X88 Y115.545 E22.23672
G1 X88.04 Y114.798 E22.2616
G1 X88.161 Y114.053 E22.28671
G1 X88.162 Y103.623 E22.63361
G1 X80.117 Y103.623 E22.90119
G1 X79.37 Y103.583 E22.92607
G1 X78.632 Y103.464 E22.95093
G1 X77.91 Y103.266 E22.97583
G1 X77.214 Y102.993 E23.0007
G1 X76.551 Y102.646 E23.02559
G1 X75.928 Y102.231 E23.05048
G1 X75.167 Y101.573 E23.08394
G1 X75.05 Y101.456 E23.08945
G1 X74.55 Y100.899 E23.11434
G1 X74.113 Y100.293 E23.13919
G1 X73.742 Y99.643 E23.16409
G1 X73.443 Y98.957 E23.18898
G1 X73.219 Y98.243 E23.21386
G1 X73.072 Y97.51 E23.23873
G1 X73 Y96.506 E23.27221
G1 X73 Y86.5 E23.60501
G1 X73.021 Y86.113 E23.6179
G1 X73.019 Y86.1 E23.61834
G1 X73 Y85.583 E23.63554
G1 X73 Y81.745 E23.7632
G1 X73.04 Y80.998 E23.78808
G1 X73.159 Y80.26 E23.81294
G1 X73.357 Y79.538 E23.83784
G1 X73.63 Y78.842 E23.86271
G1 X73.977 Y78.179 E23.8876
G1 X74.392 Y77.556 E23.91249
G1 X75.05 Y76.795 E23.94595
G1 X75.167 Y76.678 E23.95146
G0 F6000 X75.45 Y76.961
G1 F1200 X75.991 Y76.477 E23.9756
G1 X76.582 Y76.054 E23.99977
G1 X77.216 Y75.7 E24.02393
G1 X77.885 Y75.417 E24.04809
G1 X78.581 Y75.209 E24.07225
G1 X79.296 Y75.079 E24.09642
G1 X80.117 Y75.028 E24.12378
G1 X139.883 Y75.028 E26.1116
G1 X140.608 Y75.068 E26.13575
G1 X141.325 Y75.187 E26.15993
G1 X142.024 Y75.385 E26.18409
G1 X142.697 Y75.658 E26.20824
G1 X143.336 Y76.003 E26.2324
G1 X143.933 Y76.417 E26.25656
G1 X144.55 Y76.961 E26.28392
G1 X144.667 Y77.078 E26.28942
G1 X145.151 Y77.619 E26.31357
G1 X145.574 Y78.21 E26.33774
G1 X145.928 Y78.844 E26.36189
G1 X146.211 Y79.513 E26.38605
G1 X146.419 Y80.209 E26.41021
G1 X146.549 Y80.924 E26.43438
G1 X146.6 Y81.745 E26.46174
G1 X146.6 Y85.583 E26.58939
G1 X146.573 Y86.069 E26.60558
G1 X146.6 Y86.5 E26.61995
G1 X146.6 Y96.506 E26.95275
G1 X146.56 Y97.231 E26.9769
G1 X146.441 Y97.948 E27.00107
G1 X146.243 Y98.647 E27.02524
G1 X145.97 Y99.32 E27.04939
G1 X145.625 Y99.959 E27.07354
G1 X145.211 Y100.556 E27.09771
G1 X144.667 Y101.173 E27.12507
G1 X144.55 Y101.29 E27.13057
G1 X144.009 Y101.774 E27.15471
G1 X143.418 Y102.197 E27.17889
G1 X142.784 Y102.551 E27.20304
G1 X142.115 Y102.834 E27.2272
G1 X141.419 Y103.042 E27.25136
G1 X140.704 Y103.172 E27.27553
G1 X139.883 Y103.223 E27.30289
G1 X131.439 Y103.223 E27.58374
G1 X131.439 Y114.119 E27.94614
G1 X131.549 Y114.724 E27.96659
G1 X131.6 Y115.545 E27.99395
G1 X131.6 Y121.508 E28.19228
G1 X131.56 Y122.233 E28.21643
G1 X131.441 Y122.95 E28.24061
G1 X131.243 Y123.649 E28.26477
G1 X130.97 Y124.322 E28.28892
G1 X130.625 Y124.961 E28.31308
G1 X130.211 Y125.558 E28.33724
G1 X129.667 Y126.175 E28.3646
G1 X129.55 Y126.292 E28.3701
G1 X129.009 Y126.776 E28.39425
G1 X128.418 Y127.199 E28.41842
G1 X127.784 Y127.553 E28.44257
G1 X127.115 Y127.836 E28.46673
G1 X126.419 Y128.044 E28.49089
G1 X125.704 Y128.174 E28.51506
G1 X124.883 Y128.225 E28.54242
G1 X95.117 Y128.225 E29.53244
G1 X94.392 Y128.185 E29.55659
G1 X93.675 Y128.066 E29.58077
G1 X92.976 Y127.868 E29.60493
G1 X92.303 Y127.595 E29.62909
G1 X91.664 Y127.25 E29.65324
G1 X91.067 Y126.836 E29.6774
G1 X90.45 Y126.292 E29.70476
G1 X90.333 Y126.175 E29.71026
G1 X89.849 Y125.634 E29.73441
G1 X89.426 Y125.043 E29.75858
G1 X89.072 Y124.409 E29.78273
G1 X88.789 Y123.74 E29.80689
G1 X88.581 Y123.044 E29.83105
G1 X88.451 Y122.329 E29.85522
G1 X88.4 Y121.508 E29.88258
G1 X88.4 Y115.545 E30.08091
G1 X88.44 Y114.82 E30.10506
G1 X88.561 Y114.096 E30.12948
G1 X88.562 Y103.223 E30.49112
G1 X80.117 Y103.223 E30.772
G1 X79.392 Y103.183 E30.79615
G1 X78.675 Y103.064 E30.82032
G1 X77.976 Y102.866 E30.84449
G1 X77.303 Y102.593 E30.86864
G1 X76.664 Y102.248 E30.89279
G1 X76.067 Y101.834 E30.91696
G1 X75.45 Y101.29 E30.94432
G1 X75.333 Y101.173 E30.94982
G1 X74.849 Y100.632 E30.97396
G1 X74.426 Y100.041 E30.99814
G1 X74.072 Y99.407 E31.02229
G1 X73.789 Y98.738 E31.04645
G1 X73.581 Y98.042 E31.07061
G1 X73.451 Y97.327 E31.09478
G1 X73.4 Y96.506 E31.12214
G1 X73.4 Y86.5 E31.45494
G1 X73.428 Y85.988 E31.47199
G1 X73.4 Y85.583 E31.4855
G1 X73.4 Y81.745 E31.61315
G1 X73.44 Y81.02 E31.6373
G1 X73.559 Y80.303 E31.66147
G1 X73.757 Y79.604 E31.68564
G1 X74.03 Y78.931 E31.70979
G1 X74.375 Y78.292 E31.73394
G1 X74.789 Y77.695 E31.75811
G1 X75.333 Y77.078 E31.78547
G1 X75.45 Y76.961 E31.79097
G0 F6000 X75.733 Y77.244
G1 F1200 X76.258 Y76.775 E31.81438
G1 X76.833 Y76.369 E31.8378
G1 X77.451 Y76.031 E31.86122
G1 X78.102 Y75.764 E31.88463
G1 X78.78 Y75.574 E31.90805
G1 X79.475 Y75.461 E31.93147
G1 X80.117 Y75.428 E31.95285
G1 X139.883 Y75.428 E33.94067
G1 X140.586 Y75.468 E33.96409
G1 X141.28 Y75.587 E33.98751
G1 X141.955 Y75.785 E34.01091
G1 X142.604 Y76.057 E34.03431
G1 X143.218 Y76.402 E34.05774
G1 X143.789 Y76.813 E34.08114
G1 X144.267 Y77.244 E34.10254
G1 X144.384 Y77.361 E34.10805
G1 X144.853 Y77.886 E34.13146
G1 X145.259 Y78.461 E34.15487
G1 X145.597 Y79.079 E34.1783
G1 X145.864 Y79.73 E34.2017
G1 X146.054 Y80.408 E34.22512
G1 X146.167 Y81.103 E34.24854
G1 X146.2 Y81.745 E34.26992
G1 X146.2 Y85.583 E34.39758
G1 X146.175 Y86.018 E34.41207
G1 X146.2 Y86.5 E34.42812
G1 X146.2 Y96.506 E34.76092
G1 X146.16 Y97.209 E34.78434
G1 X146.041 Y97.903 E34.80776
G1 X145.843 Y98.578 E34.83116
G1 X145.571 Y99.227 E34.85456
G1 X145.226 Y99.841 E34.87799
G1 X144.815 Y100.412 E34.90139
G1 X144.384 Y100.89 E34.92279
G1 X144.267 Y101.007 E34.9283
G1 X143.742 Y101.476 E34.95171
G1 X143.167 Y101.882 E34.97512
G1 X142.549 Y102.22 E34.99855
G1 X141.898 Y102.487 E35.02195
G1 X141.22 Y102.677 E35.04537
G1 X140.525 Y102.79 E35.06879
G1 X139.883 Y102.823 E35.09017
G1 X131.039 Y102.823 E35.38433
G1 X131.039 Y114.154 E35.7612
