;FLAVOR:Marlin
;TIME:7342
;Filament used: 4.90176m
;Layer height: 0.2
;MINX:60.7
;MINY:60.7
;MINZ:0.2
;MAXX:159.3
;MAXY:159.3
;MAXZ:13.6
;Generated with Cura_SteamEngine master
M140 S90
M105
M190 S90
M104 S240
M105
M109 S240
M82 ;absolute extrusion mode
; Ender 3 Custom Start G-code
G92 E0 ; Reset Extruder
G28 ; Home all axes
G1 Z2.0 F3000 ; Move Z Axis up little to prevent scratching of Heat Bed
G1 X0.1 Y20 Z0.3 F5000.0 ; Move to start position
G1 X0.1 Y200.0 Z0.3 F1500.0 E15 ; Draw the first line
G1 X0.4 Y200.0 Z0.3 F5000.0 ; Move to side a little
G1 X0.4 Y20 Z0.3 F1500.0 E30 ; Draw the second line
G92 E0 ; Reset Extruder
G1 Z2.0 F3000 ; Move Z Axis up little to prevent scratching of Heat Bed
G1 X5 Y20 Z0.3 F5000.0 ; Move over to prevent blob squish
G92 E0
G92 E0
G1 F2700 E-5
;LAYER_COUNT:68
;LAYER:0
M107
G0 F6000 X62.985 Y63.102 Z0.2
;TYPE:SKIRT
G1 F2700 E0
G1 F1200 X63.102 Y62.985 E0.0055
G1 X63.688 Y62.455 E0.03178
G1 X64.324 Y61.988 E0.05803
G1 X65.004 Y61.587 E0.08428
G1 X65.722 Y61.257 E0.11057
G1 X66.469 Y61.002 E0.13682
G1 X67.238 Y60.823 E0.16308
G1 X68.022 Y60.723 E0.18937
G1 X68.617 Y60.7 E0.20917
G1 X151.383 Y60.7 E2.96198
G1 X152.172 Y60.74 E2.98826
G1 X152.952 Y60.859 E3.0145
G1 X153.717 Y61.057 E3.04078
G1 X154.457 Y61.331 E3.06703
G1 X155.166 Y61.679 E3.0933
G1 X155.837 Y62.097 E3.11959
G1 X156.461 Y62.58 E3.14583
G1 X156.898 Y62.985 E3.16565
G1 X157.015 Y63.102 E3.17115
G1 X157.545 Y63.688 E3.19743
G1 X158.012 Y64.324 E3.22368
G1 X158.413 Y65.004 E3.24993
G1 X158.743 Y65.722 E3.27622
G1 X158.998 Y66.469 E3.30247
G1 X159.177 Y67.238 E3.32873
G1 X159.277 Y68.022 E3.35502
G1 X159.3 Y68.617 E3.37482
G1 X159.3 Y151.383 E6.12763
G1 X159.26 Y152.172 E6.15391
G1 X159.141 Y152.952 E6.18015
G1 X158.943 Y153.717 E6.20643
G1 X158.669 Y154.457 E6.23268
G1 X158.321 Y155.166 E6.25895
G1 X157.903 Y155.837 E6.28524
G1 X157.42 Y156.461 E6.31149
G1 X157.015 Y156.898 E6.3313
G1 X156.898 Y157.015 E6.33681
G1 X156.312 Y157.545 E6.36309
G1 X155.676 Y158.012 E6.38933
G1 X154.996 Y158.413 E6.41559
G1 X154.278 Y158.743 E6.44187
G1 X153.531 Y158.998 E6.46812
G1 X152.762 Y159.177 E6.49438
G1 X151.978 Y159.277 E6.52067
G1 X151.383 Y159.3 E6.54047
G1 X68.617 Y159.3 E9.29328
G1 X67.828 Y159.26 E9.31956
G1 X67.048 Y159.141 E9.3458
G1 X66.283 Y158.943 E9.37208
G1 X65.543 Y158.669 E9.39833
G1 X64.834 Y158.321 E9.4246
G1 X64.163 Y157.903 E9.45089
G1 X63.539 Y157.42 E9.47714
G1 X63.102 Y157.015 E9.49695
G1 X62.985 Y156.898 E9.50246
G1 X62.455 Y156.312 E9.52874
G1 X61.988 Y155.676 E9.55498
G1 X61.587 Y154.996 E9.58124
G1 X61.257 Y154.278 E9.60752
G1 X61.002 Y153.531 E9.63377
G1 X60.823 Y152.762 E9.66003
G1 X60.723 Y151.978 E9.68632
G1 X60.7 Y151.383 E9.70612
G1 X60.7 Y68.617 E12.45893
G1 X60.74 Y67.828 E12.48521
G1 X60.859 Y67.048 E12.51145
G1 X61.057 Y66.283 E12.53773
G1 X61.331 Y65.543 E12.56398
G1 X61.679 Y64.834 E12.59025
G1 X62.097 Y64.163 E12.61654
G1 X62.58 Y63.539 E12.64279
G1 X62.985 Y63.102 E12.6626
G0 F6000 X63.267 Y63.384
G1 F1200 X63.384 Y63.267 E12.66811
G1 X63.956 Y62.753 E12.69369
G1 X64.578 Y62.3 E12.71928
G1 X65.243 Y61.914 E12.74485
G1 X65.945 Y61.599 E12.77044
G1 X66.676 Y61.359 E12.79603
G1 X67.427 Y61.196 E12.82159
G1 X68.192 Y61.112 E12.84719
G1 X68.617 Y61.1 E12.86133
G1 X151.383 Y61.1 E15.61414
G1 X152.151 Y61.14 E15.63972
G1 X152.911 Y61.259 E15.6653
G1 X153.654 Y61.457 E15.69088
G1 X154.373 Y61.731 E15.71647
G1 X155.059 Y62.078 E15.74204
G1 X155.706 Y62.494 E15.76762
G1 X156.306 Y62.975 E15.7932
G1 X156.616 Y63.267 E15.80736
G1 X156.733 Y63.384 E15.81287
G1 X157.247 Y63.956 E15.83845
G1 X157.7 Y64.578 E15.86404
G1 X158.086 Y65.243 E15.88961
G1 X158.401 Y65.945 E15.9152
G1 X158.641 Y66.676 E15.94079
G1 X158.804 Y67.427 E15.96635
G1 X158.888 Y68.192 E15.99195
G1 X158.9 Y68.617 E16.00609
G1 X158.9 Y151.383 E18.7589
G1 X158.86 Y152.151 E18.78448
G1 X158.741 Y152.911 E18.81006
G1 X158.543 Y153.654 E18.83564
G1 X158.269 Y154.373 E18.86123
G1 X157.922 Y155.059 E18.8868
G1 X157.506 Y155.706 E18.91238
G1 X157.025 Y156.306 E18.93796
G1 X156.733 Y156.616 E18.95213
G1 X156.616 Y156.733 E18.95763
G1 X156.044 Y157.247 E18.98321
G1 X155.422 Y157.7 E19.0088
G1 X154.757 Y158.086 E19.03437
G1 X154.055 Y158.401 E19.05996
G1 X153.324 Y158.641 E19.08555
G1 X152.573 Y158.804 E19.11111
G1 X151.808 Y158.888 E19.13671
G1 X151.383 Y158.9 E19.15085
G1 X68.617 Y158.9 E21.90366
G1 X67.849 Y158.86 E21.92924
G1 X67.089 Y158.741 E21.95483
G1 X66.346 Y158.543 E21.9804
G1 X65.627 Y158.269 E22.00599
G1 X64.941 Y157.922 E22.03156
G1 X64.294 Y157.506 E22.05714
G1 X63.694 Y157.025 E22.08272
G1 X63.384 Y156.733 E22.09689
G1 X63.267 Y156.616 E22.10239
G1 X62.753 Y156.044 E22.12797
G1 X62.3 Y155.422 E22.15356
G1 X61.914 Y154.757 E22.17913
G1 X61.599 Y154.055 E22.20473
G1 X61.359 Y153.324 E22.23032
G1 X61.196 Y152.573 E22.25587
G1 X61.112 Y151.808 E22.28147
G1 X61.1 Y151.383 E22.29561
G1 X61.1 Y68.617 E25.04842
G1 X61.14 Y67.849 E25.074
G1 X61.259 Y67.089 E25.09959
G1 X61.457 Y66.346 E25.12516
G1 X61.731 Y65.627 E25.15075
G1 X62.078 Y64.941 E25.17632
G1 X62.494 Y64.294 E25.2019
G1 X62.975 Y63.694 E25.22748
G1 X63.267 Y63.384 E25.24165
G0 F6000 X63.55 Y63.667
G1 F1200 X63.667 Y63.55 E25.24715
G1 X64.224 Y63.05 E25.27204
G1 X64.83 Y62.613 E25.29689
G1 X65.48 Y62.242 E25.32179
G1 X66.166 Y61.943 E25.34668
G1 X66.88 Y61.719 E25.37157
G1 X67.613 Y61.572 E25.39643
G1 X68.617 Y61.5 E25.42991
G1 X151.383 Y61.5 E28.18272
G1 X152.13 Y61.54 E28.2076
G1 X152.868 Y61.659 E28.23246
G1 X153.59 Y61.857 E28.25736
G1 X154.286 Y62.13 E28.28223
G1 X154.949 Y62.477 E28.30712
G1 X155.572 Y62.892 E28.33202
G1 X156.333 Y63.55 E28.36548
G1 X156.45 Y63.667 E28.37098
G1 X156.95 Y64.224 E28.39587
G1 X157.387 Y64.83 E28.42072
G1 X157.758 Y65.48 E28.44562
G1 X158.057 Y66.166 E28.47051
G1 X158.281 Y66.88 E28.4954
G1 X158.428 Y67.613 E28.52026
G1 X158.5 Y68.617 E28.55374
G1 X158.5 Y151.383 E31.30655
G1 X158.46 Y152.13 E31.33143
G1 X158.341 Y152.868 E31.35629
G1 X158.143 Y153.59 E31.38119
G1 X157.87 Y154.286 E31.40606
G1 X157.523 Y154.949 E31.43095
G1 X157.108 Y155.572 E31.45584
G1 X156.45 Y156.333 E31.48931
G1 X156.333 Y156.45 E31.49481
G1 X155.776 Y156.95 E31.5197
G1 X155.17 Y157.387 E31.54455
G1 X154.52 Y157.758 E31.56945
G1 X153.834 Y158.057 E31.59434
G1 X153.12 Y158.281 E31.61922
G1 X152.387 Y158.428 E31.64409
G1 X151.383 Y158.5 E31.67757
G1 X68.617 Y158.5 E34.43038
G1 X67.87 Y158.46 E34.45526
G1 X67.132 Y158.341 E34.48012
G1 X66.41 Y158.143 E34.50502
G1 X65.714 Y157.87 E34.52989
G1 X65.051 Y157.523 E34.55478
G1 X64.428 Y157.108 E34.57967
G1 X63.667 Y156.45 E34.61313
G1 X63.55 Y156.333 E34.61864
G1 X63.05 Y155.776 E34.64353
G1 X62.613 Y155.17 E34.66838
G1 X62.242 Y154.52 E34.69328
G1 X61.943 Y153.834 E34.71817
G1 X61.719 Y153.12 E34.74305
G1 X61.572 Y152.387 E34.76792
G1 X61.5 Y151.383 E34.8014
G1 X61.5 Y68.617 E37.55421
G1 X61.54 Y67.87 E37.57909
G1 X61.659 Y67.132 E37.60395
G1 X61.857 Y66.41 E37.62885
G1 X62.13 Y65.714 E37.65372
G1 X62.477 Y65.051 E37.67861
G1 X62.892 Y64.428 E37.7035
G1 X63.55 Y63.667 E37.73696
G0 F6000 X63.833 Y63.95
G1 F1200 X63.95 Y63.833 E37.74247
G1 X64.491 Y63.349 E37.76661
G1 X65.082 Y62.926 E37.79078
G1 X65.716 Y62.572 E37.81494
G1 X66.385 Y62.289 E37.8391
G1 X67.081 Y62.081 E37.86326
G1 X67.796 Y61.951 E37.88743
G1 X68.617 Y61.9 E37.91479
G1 X151.383 Y61.9 E40.66759
G1 X152.108 Y61.94 E40.69174
G1 X152.825 Y62.059 E40.71592
G1 X153.524 Y62.257 E40.74008
G1 X154.197 Y62.53 E40.76424
G1 X154.836 Y62.875 E40.78839
G1 X155.433 Y63.289 E40.81255
G1 X156.05 Y63.833 E40.83991
G1 X156.167 Y63.95 E40.84542
G1 X156.651 Y64.491 E40.86956
G1 X157.074 Y65.082 E40.89373
G1 X157.428 Y65.716 E40.91788
G1 X157.711 Y66.385 E40.94204
G1 X157.919 Y67.081 E40.9662
G1 X158.049 Y67.796 E40.99038
G1 X158.1 Y68.617 E41.01773
G1 X158.1 Y151.383 E43.77054
G1 X158.06 Y152.108 E43.79469
G1 X157.941 Y152.825 E43.81887
G1 X157.743 Y153.524 E43.84303
G1 X157.47 Y154.197 E43.86719
G1 X157.125 Y154.836 E43.89134
G1 X156.711 Y155.433 E43.9155
G1 X156.167 Y156.05 E43.94286
G1 X156.05 Y156.167 E43.94837
G1 X155.509 Y156.651 E43.97251
G1 X154.918 Y157.074 E43.99668
G1 X154.284 Y157.428 E44.02083
G1 X153.615 Y157.711 E44.04499
G1 X152.919 Y157.919 E44.06915
G1 X152.204 Y158.049 E44.09332
G1 X151.383 Y158.1 E44.12068
G1 X68.617 Y158.1 E46.87349
G1 X67.892 Y158.06 E46.89764
G1 X67.175 Y157.941 E46.92182
G1 X66.476 Y157.743 E46.94598
G1 X65.803 Y157.47 E46.97014
G1 X65.164 Y157.125 E46.99429
G1 X64.567 Y156.711 E47.01845
G1 X63.95 Y156.167 E47.04581
G1 X63.833 Y156.05 E47.05131
G1 X63.349 Y155.509 E47.07546
G1 X62.926 Y154.918 E47.09963
G1 X62.572 Y154.284 E47.12378
G1 X62.289 Y153.615 E47.14794
G1 X62.081 Y152.919 E47.1721
G1 X61.951 Y152.204 E47.19627
G1 X61.9 Y151.383 E47.22363
G1 X61.9 Y68.617 E49.97644
G1 X61.94 Y67.892 E50.00059
G1 X62.059 Y67.175 E50.02476
G1 X62.257 Y66.476 E50.04893
G1 X62.53 Y65.803 E50.07308
G1 X62.875 Y65.164 E50.09724
G1 X63.289 Y64.567 E50.1214
G1 X63.833 Y63.95 E50.14876
G0 F6000 X64.116 Y64.233
G1 F1200 X64.233 Y64.116 E50.15426
G1 X64.758 Y63.647 E50.17768
G1 X65.333 Y63.241 E50.20109
G1 X65.951 Y62.903 E50.22452
G1 X66.602 Y62.636 E50.24792
G1 X67.28 Y62.446 E50.27134
G1 X67.975 Y62.333 E50.29476
G1 X68.617 Y62.3 E50.31614
G1 X151.383 Y62.3 E53.06895
G1 X152.086 Y62.34 E53.09237
G1 X152.78 Y62.459 E53.11579
G1 X153.455 Y62.657 E53.13918
G1 X154.104 Y62.929 E53.16259
G1 X154.718 Y63.274 E53.18601
G1 X155.289 Y63.685 E53.20941
G1 X155.767 Y64.116 E53.23082
G1 X155.884 Y64.233 E53.23632
G1 X156.353 Y64.758 E53.25974
G1 X156.759 Y65.333 E53.28315
G1 X157.097 Y65.951 E53.30658
G1 X157.364 Y66.602 E53.32998
G1 X157.554 Y67.28 E53.3534
G1 X157.667 Y67.975 E53.37682
G1 X157.7 Y68.617 E53.3982
G1 X157.7 Y151.383 E56.15101
G1 X157.66 Y152.086 E56.17443
G1 X157.541 Y152.78 E56.19785
G1 X157.343 Y153.455 E56.22124
G1 X157.071 Y154.104 E56.24465
G1 X156.726 Y154.718 E56.26807
G1 X156.315 Y155.289 E56.29147
G1 X155.884 Y155.767 E56.31288
G1 X155.767 Y155.884 E56.31838
G1 X155.242 Y156.353 E56.3418
G1 X154.667 Y156.759 E56.36521
G1 X154.049 Y157.097 E56.38864
G1 X153.398 Y157.364 E56.41204
G1 X152.72 Y157.554 E56.43546
G1 X152.025 Y157.667 E56.45888
G1 X151.383 Y157.7 E56.48026
G1 X68.617 Y157.7 E59.23307
G1 X67.914 Y157.66 E59.25649
G1 X67.22 Y157.541 E59.27991
G1 X66.545 Y157.343 E59.3033
G1 X65.896 Y157.071 E59.32671
G1 X65.282 Y156.726 E59.35013
G1 X64.711 Y156.315 E59.37353
G1 X64.233 Y155.884 E59.39494
G1 X64.116 Y155.767 E59.40044
G1 X63.647 Y155.242 E59.42386
G1 X63.241 Y154.667 E59.44727
G1 X62.903 Y154.049 E59.4707
G1 X62.636 Y153.398 E59.4941
G1 X62.446 Y152.72 E59.51752
G1 X62.333 Y152.025 E59.54094
G1 X62.3 Y151.383 E59.56232
G1 X62.3 Y68.617 E62.31513
G1 X62.34 Y67.914 E62.33855
G1 X62.459 Y67.22 E62.36197
G1 X62.657 Y66.545 E62.38536
G1 X62.929 Y65.896 E62.40877
G1 X63.274 Y65.282 E62.43219
G1 X63.685 Y64.711 E62.45559
G1 X64.116 Y64.233 E62.477
G0 F6000 X64.399 Y64.516
G1 F1200 X64.516 Y64.399 E62.4825
G1 X65.025 Y63.946 E62.50517
G1 X65.583 Y63.557 E62.52779
G1 X66.183 Y63.235 E62.55044
G1 X66.817 Y62.986 E62.57309
G1 X67.476 Y62.813 E62.59575
G1 X68.15 Y62.719 E62.61839
G1 X68.617 Y62.7 E62.63393
G1 X151.383 Y62.7 E65.38674
G1 X152.063 Y62.74 E65.4094
G1 X152.733 Y62.859 E65.43203
G1 X153.385 Y63.056 E65.45468
G1 X154.009 Y63.328 E65.47732
G1 X154.597 Y63.672 E65.49998
G1 X155.141 Y64.082 E65.52264
G1 X155.484 Y64.399 E65.53817
G1 X155.601 Y64.516 E65.54368
G1 X156.054 Y65.025 E65.56634
G1 X156.443 Y65.583 E65.58896
G1 X156.765 Y66.183 E65.61161
G1 X157.014 Y66.817 E65.63427
G1 X157.187 Y67.476 E65.65693
G1 X157.281 Y68.15 E65.67956
G1 X157.3 Y68.617 E65.69511
G1 X157.3 Y151.383 E68.44792
G1 X157.26 Y152.063 E68.47057
G1 X157.141 Y152.733 E68.49321
G1 X156.944 Y153.385 E68.51586
G1 X156.672 Y154.009 E68.5385
G1 X156.328 Y154.597 E68.56116
G1 X155.918 Y155.141 E68.58381
G1 X155.601 Y155.484 E68.59935
G1 X155.484 Y155.601 E68.60485
G1 X154.975 Y156.054 E68.62752
G1 X154.417 Y156.443 E68.65014
G1 X153.817 Y156.765 E68.67279
G1 X153.183 Y157.014 E68.69544
G1 X152.524 Y157.187 E68.7181
G1 X151.85 Y157.281 E68.74074
G1 X151.383 Y157.3 E68.75628
G1 X68.617 Y157.3 E71.50909
G1 X67.937 Y157.26 E71.53175
G1 X67.267 Y157.141 E71.55438
G1 X66.615 Y156.944 E71.57703
G1 X65.991 Y156.672 E71.59967
G1 X65.403 Y156.328 E71.62233
G1 X64.859 Y155.918 E71.64499
G1 X64.516 Y155.601 E71.66052
G1 X64.399 Y155.484 E71.66603
G1 X63.946 Y154.975 E71.68869
G1 X63.557 Y154.417 E71.71131
G1 X63.235 Y153.817 E71.73396
G1 X62.986 Y153.183 E71.75662
G1 X62.813 Y152.524 E71.77928
G1 X62.719 Y151.85 E71.80191
G1 X62.7 Y151.383 E71.81746
G1 X62.7 Y68.617 E74.57027
G1 X62.74 Y67.937 E74.59292
G1 X62.859 Y67.267 E74.61556
G1 X63.056 Y66.615 E74.63821
G1 X63.328 Y65.991 E74.66085
G1 X63.672 Y65.403 E74.68351
G1 X64.082 Y64.859 E74.70616
G1 X64.399 Y64.516 E74.7217
G0 F6000 X64.682 Y64.799
G1 F1200 X64.799 Y64.682 E74.7272
G1 X65.291 Y64.246 E74.74907
G1 X65.832 Y63.874 E74.7709
G1 X66.414 Y63.57 E74.79274
G1 X67.029 Y63.339 E74.81459
G1 X67.668 Y63.184 E74.83646
G1 X68.617 Y63.1 E74.86815
G1 X151.383 Y63.1 E77.62096
G1 X152.039 Y63.14 E77.64282
G1 X152.685 Y63.259 E77.66467
G1 X153.312 Y63.456 E77.68652
G1 X153.91 Y63.728 E77.70837
G1 X154.471 Y64.07 E77.73023
G1 X155.201 Y64.682 E77.76191
G1 X155.318 Y64.799 E77.76741
G1 X155.754 Y65.291 E77.78928
G1 X156.126 Y65.832 E77.81112
G1 X156.43 Y66.414 E77.83296
G1 X156.661 Y67.029 E77.85481
G1 X156.816 Y67.668 E77.87668
G1 X156.9 Y68.617 E77.90836
G1 X156.9 Y151.383 E80.66117
G1 X156.86 Y152.039 E80.68303
G1 X156.741 Y152.685 E80.70488
G1 X156.544 Y153.312 E80.72674
G1 X156.272 Y153.91 E80.74859
G1 X155.93 Y154.471 E80.77044
G1 X155.318 Y155.201 E80.80212
G1 X155.201 Y155.318 E80.80763
G1 X154.709 Y155.754 E80.82949
G1 X154.168 Y156.126 E80.85133
G1 X153.586 Y156.43 E80.87317
G1 X152.971 Y156.661 E80.89502
G1 X152.332 Y156.816 E80.91689
G1 X151.383 Y156.9 E80.94857
G1 X68.617 Y156.9 E83.70138
G1 X67.961 Y156.86 E83.72324
G1 X67.315 Y156.741 E83.74509
G1 X66.688 Y156.544 E83.76695
G1 X66.09 Y156.272 E83.7888
G1 X65.529 Y155.93 E83.81065
G1 X64.799 Y155.318 E83.84234
G1 X64.682 Y155.201 E83.84784
G1 X64.246 Y154.709 E83.8697
G1 X63.874 Y154.168 E83.89154
G1 X63.57 Y153.586 E83.91338
G1 X63.339 Y152.971 E83.93523
G1 X63.184 Y152.332 E83.9571
G1 X63.1 Y151.383 E83.98879
G1 X63.1 Y68.617 E86.7416
G1 X63.14 Y67.961 E86.76345
G1 X63.259 Y67.315 E86.7853
G1 X63.456 Y66.688 E86.80716
G1 X63.728 Y66.09 E86.82901
G1 X64.07 Y65.529 E86.85086
G1 X64.682 Y64.799 E86.88255
G0 F6000 X64.964 Y65.081
G1 F1200 X65.081 Y64.964 E86.88805
G1 X65.556 Y64.547 E86.90907
G1 X66.079 Y64.192 E86.9301
G1 X66.643 Y63.906 E86.95113
G1 X67.238 Y63.694 E86.97214
G1 X67.856 Y63.558 E86.99319
G1 X68.617 Y63.5 E87.01857
G1 X151.383 Y63.5 E89.77138
G1 X152.014 Y63.54 E89.79241
G1 X152.635 Y63.659 E89.81344
G1 X153.235 Y63.856 E89.83444
G1 X153.807 Y64.127 E89.85549
G1 X154.339 Y64.467 E89.87649
G1 X154.919 Y64.964 E89.9019
G1 X155.036 Y65.081 E89.9074
G1 X155.453 Y65.556 E89.92842
G1 X155.808 Y66.079 E89.94945
G1 X156.094 Y66.643 E89.97048
G1 X156.306 Y67.238 E89.99149
G1 X156.442 Y67.856 E90.01254
G1 X156.5 Y68.617 E90.03792
G1 X156.5 Y151.383 E92.79073
G1 X156.46 Y152.014 E92.81176
G1 X156.341 Y152.635 E92.83279
G1 X156.144 Y153.235 E92.85379
G1 X155.873 Y153.807 E92.87484
G1 X155.533 Y154.339 E92.89584
G1 X155.036 Y154.919 E92.92125
G1 X154.919 Y155.036 E92.92675
G1 X154.444 Y155.453 E92.94777
G1 X153.921 Y155.808 E92.9688
G1 X153.357 Y156.094 E92.98983
G1 X152.762 Y156.306 E93.01084
G1 X152.144 Y156.442 E93.03189
G1 X151.383 Y156.5 E93.05727
G1 X68.617 Y156.5 E95.81008
G1 X67.986 Y156.46 E95.83111
G1 X67.365 Y156.341 E95.85214
G1 X66.765 Y156.144 E95.87314
G1 X66.193 Y155.873 E95.89419
G1 X65.661 Y155.533 E95.91519
G1 X65.081 Y155.036 E95.9406
G1 X64.964 Y154.919 E95.9461
G1 X64.547 Y154.444 E95.96712
G1 X64.192 Y153.921 E95.98815
G1 X63.906 Y153.357 E96.00918
G1 X63.694 Y152.762 E96.03019
G1 X63.558 Y152.144 E96.05124
G1 X63.5 Y151.383 E96.07662
G1 X63.5 Y68.617 E98.82943
G1 X63.54 Y67.986 E98.85046
G1 X63.659 Y67.365 E98.87149
