;FLAVOR:Marlin
;TIME:4502
;Filament used: 2.65467m
;Layer height: 0.2
;MINX:67.835
;MINY:86.83
;MINZ:0.2
;MAXX:152.165
;MAXY:133.17
;MAXZ:12
;Generated with Cura_SteamEngine master
M140 S100
M105
M190 S100
M104 S250
M105
M109 S250
M82 ;absolute extrusion mode
; Ender 3 Custom Start G-code
G92 E0 ; Reset Extruder
G28 ; Home all axes
G1 Z2.0 F3000 ; Move Z Axis up little to prevent scratching of Heat Bed
G1 X0.1 Y20 Z0.3 F5000.0 ; Move to start position
G1 X0.1 Y200.0 Z0.3 F1500.0 E15 ; Draw the first line
G1 X0.4 Y200.0 Z0.3 F5000.0 ; Move to side a little
G1 X0.4 Y20 Z0.3 F1500.0 E30 ; Draw the second line
G92 E0 ; Reset Extruder
G1 Z2.0 F3000 ; Move Z Axis up little to prevent scratching of Heat Bed
G1 X5 Y20 Z0.3 F5000.0 ; Move over to prevent blob squish
M83 ;relative extrusion mode
G1 F2700 E-5
;LAYER_COUNT:60
;LAYER:0
M107
;MESH:solar glued v2 small.stl
G0 F6000 X123.049 Y128.077 Z0.2
;TYPE:WALL-INNER
G1 F2700 E5
G1 F1200 X124 Y127.876 E0.03233
G1 X124 Y119.395 E0.28208
G1 X119.49 Y119.395 E0.15
G1 X119.489 Y119.395 E0.00003
G1 X119.183 Y119.395 E0.01018
G1 X119.307 Y119.675 E0.00592
G1 X123.049 Y128.077 E0.30591
G0 F6000 X123.283 Y127.619
;TYPE:WALL-OUTER
G1 F1200 X123.6 Y127.552 E0.01078
G1 X123.6 Y119.795 E0.258
G1 X119.799 Y119.795 E0.12642
G1 X123.283 Y127.619 E0.28486
G1 F2700 E-5
G0 F6000 X121.032 Y128.622
G0 X126.053 Y129.842
G0 X125.4 Y131.095
;TYPE:WALL-INNER
G1 F2700 E5
G1 F1200 X125.4 Y131.105 E0.00033
G1 X140.1 Y131.105 E0.48892
G1 X140.1 Y119.395 E0.38948
G1 X124.8 Y119.395 E0.50888
G1 X124.8 Y131.095 E0.38914
G1 X125.4 Y131.095 E0.01996
G0 F6000 X125.2 Y130.695
;TYPE:WALL-OUTER
G1 F1200 X125.8 Y130.695 E0.01996
G1 X125.8 Y130.705 E0.00033
G1 X139.7 Y130.705 E0.46232
G1 X139.7 Y119.795 E0.36287
G1 X125.2 Y119.795 E0.48227
G1 X125.2 Y130.695 E0.36254
G1 F2700 E-5
G0 F6000 X126.053 Y129.842
G0 X142.153 Y129.852
G0 X140.9 Y131.105
;TYPE:WALL-INNER
G1 F2700 E5
G1 F1200 X149.603 Y131.105 E0.28946
G1 X149.603 Y119.395 E0.38948
G1 X140.9 Y119.395 E0.28946
G1 X140.9 Y131.105 E0.38948
G0 F6000 X141.3 Y130.705
;TYPE:WALL-OUTER
G1 F1200 X149.203 Y130.705 E0.26285
G1 X149.203 Y119.795 E0.36287
G1 X141.3 Y119.795 E0.26285
G1 X141.3 Y130.705 E0.36287
G1 F2700 E-5
G0 F6000 X142.153 Y129.852
G0 X126.065 Y128.693
G0 X124 Y128.693
;TYPE:WALL-INNER
G1 F2700 E5
G1 F1200 X124 Y130.213 E0.05056
G1 X123.382 Y128.824 E0.05056
G1 X124 Y128.693 E0.02101
G0 F6000 X123.917 Y128.303
G1 F1200 X124.4 Y128.2 E0.01643
G1 X124.4 Y131.495 E0.10959
G1 X125 Y131.495 E0.01996
G1 X125 Y131.505 E0.00033
G1 X124.4 Y131.505 E0.0005
G1 X124.133 Y131.505 E0.00598
G1 X95.867 Y131.505 E0.94013
G1 X95.6 Y131.505 E0.00888
G1 X95 Y131.505 E0.01996
G1 X95 Y131.495 E0.00033
G1 X95.6 Y131.495 E0.0005
G1 X95.6 Y128.2 E0.10959
G1 X97.185 Y128.535 E0.05388
G1 X95.867 Y131.495 E0.10777
G1 X124.133 Y131.495 E0.02356
G1 X122.816 Y128.535 E0.10776
G1 X118.568 Y118.995 E0.34734
G1 X118.463 Y118.758 E0.00862
G1 X114.429 Y109.701 E0.32977
G1 X111.488 Y103.995 E0.21351
G1 X108.512 Y103.995 E0.09898
G1 X105.571 Y109.701 E0.21351
G1 X101.433 Y118.995 E0.33837
G1 X69.997 Y118.995 E1.04557
G1 X69.997 Y131.505 E0.41608
G1 X69.5 Y131.505 E0.01653
G1 X69.5 Y88.495 E1.43052
G1 X69.997 Y88.495 E0.01653
G1 X150.003 Y88.495 E2.66101
G1 X150.5 Y88.495 E0.01653
G1 X150.5 Y131.505 E1.43052
G1 X150.003 Y131.505 E0.01653
G1 X150.003 Y118.995 E0.41608
G1 X118.874 Y118.995 E1.03535
G1 X118.873 Y118.995 E0.00003
G1 X118.567 Y118.995 E0.01018
G1 X118.691 Y119.275 E0.00592
G1 X122.815 Y128.535 E0.33715
G1 X123.917 Y128.303 E0.03746
G1 F2700 E-5
G0 F6000 X126.065 Y128.303
G0 X142.153 Y99.342
G0 X140.9 Y100.595
G1 F2700 E5
G1 F1200 X149.603 Y100.595 E0.28946
G1 X149.603 Y88.895 E0.38914
G1 X140.9 Y88.895 E0.28946
G1 X140.9 Y100.595 E0.38914
G0 F6000 X141.3 Y100.195
;TYPE:WALL-OUTER
G1 F1200 X149.203 Y100.195 E0.26285
G1 X149.203 Y89.295 E0.36254
G1 X141.3 Y89.295 E0.26285
G1 X141.3 Y100.195 E0.36254
G1 F2700 E-5
G0 F6000 X142.153 Y99.342
G0 X148.35 Y99.342
G0 X150.003 Y100.995
;TYPE:WALL-INNER
G1 F2700 E5
G1 F1200 X150.003 Y88.495 E0.41575
G1 X69.997 Y88.495
G1 X69.997 Y100.995 E0.41575
G1 X150.003 Y100.995 E2.66101
G1 F2700 E-5
G0 F6000 X148.35 Y99.342
G0 X138.847 Y99.342
G0 X140.1 Y100.595
G1 F2700 E5
G1 F1200 X140.1 Y88.895 E0.38914
G1 X124.8 Y88.895 E0.50888
G1 X124.8 Y100.595 E0.38914
G1 X140.1 Y100.595 E0.50888
G1 F2700 E-5
G0 F6000 X138.847 Y99.342
G0 X126.053 Y99.342
G0 X125.2 Y100.195
;TYPE:WALL-OUTER
G1 F2700 E5
G1 F1200 X139.7 Y100.195 E0.48227
G1 X139.7 Y89.295 E0.36254
G1 X125.2 Y89.295 E0.48227
G1 X125.2 Y100.195 E0.36254
G1 F2700 E-5
G0 F6000 X126.053 Y99.342
G0 X97.253 Y99.342
G0 X96 Y100.595
;TYPE:WALL-INNER
G1 F2700 E5
G1 F1200 X124 Y100.595 E0.93128
G1 X124 Y88.895 E0.38914
G1 X96 Y88.895 E0.93128
G1 X96 Y100.595 E0.38914
G0 F6000 X96.4 Y100.195
;TYPE:WALL-OUTER
G1 F1200 X123.6 Y100.195 E0.90468
G1 X123.6 Y89.295 E0.36254
G1 X96.4 Y89.295 E0.90468
G1 X96.4 Y100.195 E0.36254
G0 F6000 X95.2 Y100.595
;TYPE:WALL-INNER
G1 F1200 X95.2 Y88.895 E0.38914
G1 X79.9 Y88.895 E0.50888
G1 X79.9 Y100.595 E0.38914
G1 X95.2 Y100.595 E0.50888
G0 F6000 X94.8 Y100.195
;TYPE:WALL-OUTER
G1 F1200 X94.8 Y89.295 E0.36254
G1 X80.3 Y89.295 E0.48227
G1 X80.3 Y100.195 E0.36254
G1 X94.8 Y100.195 E0.48227
G1 F2700 E-5
G0 F6000 X93.947 Y99.342
G0 X77.847 Y99.342
G0 X79.1 Y100.595
;TYPE:WALL-INNER
G1 F2700 E5
G1 F1200 X79.1 Y88.895 E0.38914
G1 X70.397 Y88.895 E0.28946
G1 X70.397 Y100.595 E0.38914
G1 X79.1 Y100.595 E0.28946
G0 F6000 X78.7 Y100.195
;TYPE:WALL-OUTER
G1 F1200 X78.7 Y89.295 E0.36254
G1 X70.797 Y89.295 E0.26285
G1 X70.797 Y100.195 E0.36254
G1 X78.7 Y100.195 E0.26285
G1 F2700 E-5
G0 F6000 X77.847 Y99.342
G0 X77.847 Y129.852
G0 X79.1 Y131.105
;TYPE:WALL-INNER
G1 F2700 E5
G1 F1200 X79.1 Y119.395 E0.38948
G1 X70.397 Y119.395 E0.28946
G1 X70.397 Y131.105 E0.38948
G1 X79.1 Y131.105 E0.28946
G0 F6000 X78.7 Y130.705
;TYPE:WALL-OUTER
G1 F1200 X78.7 Y119.795 E0.36287
G1 X70.797 Y119.795 E0.26285
G1 X70.797 Y130.705 E0.36287
G1 X78.7 Y130.705 E0.26285
G1 F2700 E-5
G0 F6000 X77.847 Y129.852
G0 X81.084 Y129.707
G0 X93.947 Y129.842
G0 X94.013 Y129.131
G0 X98.837 Y128.916
G0 X96.951 Y128.077
;TYPE:WALL-INNER
G1 F2700 E5
G1 F1200 X100.693 Y119.675 E0.30591
G1 X100.817 Y119.395 E0.01019
G1 X100.511 Y119.395 E0.00591
G1 X100.51 Y119.395 E0.00003
G1 X96 Y119.395 E0.15
G1 X96 Y127.876 E0.28208
G1 X96.951 Y128.077 E0.03233
G0 F6000 X96.717 Y127.619
;TYPE:WALL-OUTER
G1 F1200 X100.201 Y119.795 E0.28486
G1 X96.4 Y119.795 E0.12642
G1 X96.4 Y127.552 E0.258
G1 X96.717 Y127.619 E0.01078
G1 F2700 E-5
G0 F6000 X98.969 Y128.621
G0 X93.947 Y129.842
G0 X94.6 Y131.095
;TYPE:WALL-INNER
G1 F2700 E5
G1 F1200 X95.2 Y131.095 E0.01996
G1 X95.2 Y119.395 E0.38914
G1 X79.9 Y119.395 E0.50888
G1 X79.9 Y131.105 E0.38948
G1 X94.6 Y131.105 E0.48892
G1 X94.6 Y131.095 E0.00033
G0 F6000 X94.8 Y130.695
;TYPE:WALL-OUTER
G1 F1200 X94.8 Y119.795 E0.36254
G1 X80.3 Y119.795 E0.48227
G1 X80.3 Y130.705 E0.36287
G1 X94.2 Y130.705 E0.46232
G1 X94.2 Y130.695 E0.00033
G1 X94.8 Y130.695 E0.01996
G0 F6000 X96.79 Y131.095
;TYPE:WALL-INNER
G1 F1200 X123.21 Y131.095 E0.87873
G1 X123.211 Y131.095 E0.00003
G1 X123.517 Y131.095 E0.01018
G1 X123.393 Y130.815 E0.00592
G1 X114.068 Y109.874 E0.76243
G1 X111.244 Y104.395 E0.20501
G1 X108.756 Y104.395 E0.08275
G1 X105.932 Y109.874 E0.20501
G1 X96.607 Y130.815 E0.76243
G1 X96.483 Y131.095 E0.01019
G1 X96.789 Y131.095 E0.00591
G1 X96.79 Y131.095 E0.00003
G0 F6000 X97.099 Y130.695
;TYPE:WALL-OUTER
G1 F1200 X122.901 Y130.695 E0.85818
G1 X113.707 Y110.047 E0.75176
G1 X111 Y104.795 E0.19652
G1 X109 Y104.795 E0.06652
G1 X106.293 Y110.047 E0.19652
G1 X97.099 Y130.695 E0.75176
G1 F2700 E-5
G0 F6000 X98.402 Y129.849
G0 X150.9 Y133.17
G0 X150.9 Y131.905
;TYPE:WALL-INNER
G1 F2700 E5
G1 F1200 X69.1 Y131.905 E2.72068
G1 X69.1 Y88.095 E1.45713
G1 X150.9 Y88.095 E2.72068
G1 X150.9 Y131.905 E1.45713
G0 F6000 X151.3 Y132.305
;TYPE:WALL-OUTER
G1 F1200 X68.7 Y132.305 E2.74729
G1 X68.7 Y87.695 E1.48373
G1 X151.3 Y87.695 E2.74729
G1 X151.3 Y132.305 E1.48373
G1 F2700 E-5
G0 F6000 X152.165 Y132.305
G0 X152.165 Y118.595
G0 X150.1 Y118.595
;TYPE:WALL-INNER
G1 F2700 E5
G1 F1200 X118.827 Y118.595 E1.04014
G1 X114.79 Y109.528 E0.33011
G1 X111.732 Y103.595 E0.222
G1 X108.268 Y103.595 E0.11521
G1 X105.21 Y109.528 E0.222
G1 X101.174 Y118.595 E0.3301
G1 X69.9 Y118.595 E1.04018
G1 X69.9 Y101.395 E0.57207
G1 X150.1 Y101.395 E2.66746
G1 X150.1 Y118.595 E0.57207
G1 F2700 E-5
G0 F6000 X152.165 Y118.595
G0 X142.387 Y120.611
G0 X142.085 Y120.673
G0 X138.913 Y121.327
G0 X138.847 Y120.648
G0 X126.053 Y120.648
G0 X125.985 Y123.994
G0 X98.505 Y129.663
G0 X96.619 Y128.824
G1 F2700 E5
G1 F1200 X96 Y130.213 E0.05058
G1 X96 Y128.693 E0.05056
G1 X96.619 Y128.824 E0.02104
G1 F2700 E-5
G0 F6000 X98.505 Y129.663
G0 X103.163 Y119.203
G0 X100.92 Y118.205
;TYPE:SKIN
G1 F2700 E5
G1 F1200 X70.29 Y118.205 E1.01876
G1 X70.29 Y101.785 E0.54613
G1 X149.71 Y101.785 E2.64152
G1 X149.71 Y118.205 E0.54613
G1 X119.081 Y118.205 E1.01872
G1 X115.141 Y109.359 E0.32208
G1 X111.97 Y103.205 E0.23026
G1 X108.03 Y103.205 E0.13104
G1 X104.859 Y109.359 E0.23026
G1 X100.92 Y118.205 E0.32207
G1 F2700 E-5
G0 F6000 X103.163 Y119.203
G0 X71.65 Y120.648
G0 X70.526 Y118.044
G1 F2700 E5
G1 F1200 X70.449 Y117.967 E0.00362
G0 F6000 X70.449 Y117.401
G1 F1200 X71.092 Y118.044 E0.03024
G0 F6000 X71.658 Y118.044
G1 F1200 X70.449 Y116.835 E0.05687
G0 F6000 X70.449 Y116.27
G1 F1200 X72.223 Y118.044 E0.08344
G0 F6000 X72.789 Y118.044
G1 F1200 X70.449 Y115.704 E0.11007
G0 F6000 X70.449 Y115.138
G1 F1200 X73.355 Y118.044 E0.13669
G0 F6000 X73.92 Y118.044
G1 F1200 X70.449 Y114.573 E0.16327
G0 F6000 X70.449 Y114.007
G1 F1200 X74.486 Y118.044 E0.18989
G0 F6000 X75.052 Y118.044
G1 F1200 X70.449 Y113.441 E0.21651
G0 F6000 X70.449 Y112.876
G1 F1200 X75.617 Y118.044 E0.24309
G0 F6000 X76.183 Y118.044
G1 F1200 X70.449 Y112.31 E0.26971
G0 F6000 X70.449 Y111.744
G1 F1200 X76.749 Y118.044 E0.29633
G0 F6000 X77.315 Y118.044
G1 F1200 X70.449 Y111.179 E0.32293
G0 F6000 X70.449 Y110.613
G1 F1200 X77.88 Y118.044 E0.34953
G0 F6000 X78.446 Y118.044
G1 F1200 X70.449 Y110.047 E0.37615
G0 F6000 X70.449 Y109.482
G1 F1200 X79.012 Y118.044 E0.40275
G0 F6000 X79.577 Y118.044
G1 F1200 X70.449 Y108.916 E0.42935
G0 F6000 X70.449 Y108.35
G1 F1200 X80.143 Y118.044 E0.45598
G0 F6000 X80.709 Y118.044
G1 F1200 X70.449 Y107.784 E0.4826
G0 F6000 X70.449 Y107.219
G1 F1200 X81.274 Y118.044 E0.50917
G0 F6000 X81.84 Y118.044
G1 F1200 X70.449 Y106.653 E0.5358
G0 F6000 X70.449 Y106.087
G1 F1200 X82.406 Y118.044 E0.56242
G0 F6000 X82.971 Y118.044
G1 F1200 X70.449 Y105.522 E0.589
G0 F6000 X70.449 Y104.956
G1 F1200 X83.537 Y118.044 E0.61562
G0 F6000 X84.103 Y118.044
G1 F1200 X70.449 Y104.39 E0.64224
G0 F6000 X70.449 Y103.825
G1 F1200 X84.668 Y118.044 E0.66882
G0 F6000 X85.234 Y118.044
G1 F1200 X70.449 Y103.259 E0.69544
G0 F6000 X70.449 Y102.693
G1 F1200 X85.8 Y118.044 E0.72206
G0 F6000 X86.366 Y118.044
G1 F1200 X70.449 Y102.128 E0.74866
G0 F6000 X70.832 Y101.944
G1 F1200 X86.931 Y118.044 E0.75727
G0 F6000 X87.497 Y118.044
G1 F1200 X71.397 Y101.944 E0.75729
G0 F6000 X71.963 Y101.944
G1 F1200 X88.063 Y118.044 E0.75729
G0 F6000 X88.628 Y118.044
G1 F1200 X72.529 Y101.944 E0.75727
G0 F6000 X73.095 Y101.944
G1 F1200 X89.194 Y118.044 E0.75727
G0 F6000 X89.76 Y118.044
G1 F1200 X73.66 Y101.944 E0.75729
G0 F6000 X74.226 Y101.944
G1 F1200 X90.325 Y118.044 E0.75727
G0 F6000 X90.891 Y118.044
G1 F1200 X74.792 Y101.944 E0.75727
G0 F6000 X75.357 Y101.944
G1 F1200 X91.457 Y118.044 E0.75729
G0 F6000 X92.022 Y118.044
G1 F1200 X75.923 Y101.944 E0.75727
G0 F6000 X76.489 Y101.944
G1 F1200 X92.588 Y118.044 E0.75727
G0 F6000 X93.154 Y118.044
G1 F1200 X77.054 Y101.944 E0.75729
G0 F6000 X77.62 Y101.944
G1 F1200 X93.719 Y118.044 E0.75727
G0 F6000 X94.285 Y118.044
G1 F1200 X78.186 Y101.944 E0.75727
G0 F6000 X78.751 Y101.944
G1 F1200 X94.851 Y118.044 E0.75729
G0 F6000 X95.416 Y118.044
G1 F1200 X79.317 Y101.944 E0.75727
G0 F6000 X79.883 Y101.944
G1 F1200 X95.982 Y118.044 E0.75727
G0 F6000 X96.548 Y118.044
G1 F1200 X80.448 Y101.944 E0.75729
G0 F6000 X81.014 Y101.944
G1 F1200 X97.114 Y118.044 E0.75729
G0 F6000 X97.679 Y118.044
G1 F1200 X81.58 Y101.944 E0.75727
G0 F6000 X82.146 Y101.944
G1 F1200 X98.245 Y118.044 E0.75727
G0 F6000 X98.811 Y118.044
G1 F1200 X82.711 Y101.944 E0.75729
G0 F6000 X83.277 Y101.944
G1 F1200 X99.376 Y118.044 E0.75727
G0 F6000 X99.942 Y118.044
G1 F1200 X83.843 Y101.944 E0.75727
G0 F6000 X84.408 Y101.944
G1 F1200 X100.508 Y118.044 E0.75729
G0 F6000 X100.896 Y117.866
G1 F1200 X84.974 Y101.944 E0.74892
G0 F6000 X85.54 Y101.944
G1 F1200 X101.07 Y117.475 E0.73051
G0 F6000 X101.244 Y117.084
G1 F1200 X86.105 Y101.944 E0.71212
G0 F6000 X86.671 Y101.944
G1 F1200 X101.418 Y116.692 E0.69368
G0 F6000 X101.593 Y116.301
G1 F1200 X87.237 Y101.944 E0.67529
G0 F6000 X87.802 Y101.944
G1 F1200 X101.767 Y115.909 E0.65687
G0 F6000 X101.941 Y115.517
G1 F1200 X88.368 Y101.944 E0.63843
G0 F6000 X88.934 Y101.944
G1 F1200 X102.116 Y115.126 E0.62004
G0 F6000 X102.29 Y114.735
G1 F1200 X89.499 Y101.944 E0.60165
G0 F6000 X90.065 Y101.944
G1 F1200 X102.464 Y114.344 E0.58323
G0 F6000 X102.638 Y113.952
G1 F1200 X90.631 Y101.944 E0.5648
G0 F6000 X91.196 Y101.944
G1 F1200 X102.813 Y113.561 E0.54643
G0 F6000 X102.987 Y113.169
G1 F1200 X91.762 Y101.944 E0.52799
G0 F6000 X92.328 Y101.944
G1 F1200 X103.161 Y112.778 E0.50957
G0 F6000 X103.335 Y112.386
G1 F1200 X92.894 Y101.944 E0.49114
G0 F6000 X93.459 Y101.944
G1 F1200 X103.51 Y111.995 E0.47277
G0 F6000 X103.684 Y111.604
G1 F1200 X94.025 Y101.944 E0.45435
G0 F6000 X94.591 Y101.944
G1 F1200 X103.859 Y111.213 E0.43596
G0 F6000 X104.033 Y110.821
G1 F1200 X95.156 Y101.944 E0.41755
G0 F6000 X95.722 Y101.944
G1 F1200 X104.207 Y110.43 E0.39913
G0 F6000 X104.381 Y110.038
G1 F1200 X96.288 Y101.944 E0.38069
G0 F6000 X96.853 Y101.944
G1 F1200 X104.556 Y109.647 E0.36233
G0 F6000 X104.731 Y109.257
G1 F1200 X97.419 Y101.944 E0.34396
G0 F6000 X97.985 Y101.944
G1 F1200 X104.924 Y108.883 E0.32639
G0 F6000 X105.116 Y108.51
G1 F1200 X98.55 Y101.944 E0.30884
G0 F6000 X99.116 Y101.944
G1 F1200 X105.308 Y108.137 E0.29128
G0 F6000 X105.501 Y107.763
G1 F1200 X99.682 Y101.944 E0.27371
G0 F6000 X100.247 Y101.944
G1 F1200 X105.693 Y107.39 E0.25616
G0 F6000 X105.885 Y107.017
G1 F1200 X100.813 Y101.944 E0.23859
G0 F6000 X101.379 Y101.944
G1 F1200 X106.078 Y106.643 E0.22103
G0 F6000 X106.27 Y106.27
G1 F1200 X101.944 Y101.944 E0.20348
G0 F6000 X102.51 Y101.944
G1 F1200 X106.462 Y105.897 E0.18591
G0 F6000 X106.655 Y105.523
G1 F1200 X103.076 Y101.944 E0.16835
G0 F6000 X103.642 Y101.944
G1 F1200 X106.847 Y105.15 E0.15078
G0 F6000 X107.039 Y104.776
G1 F1200 X104.207 Y101.944 E0.13321
G0 F6000 X104.773 Y101.944
G1 F1200 X107.232 Y104.403 E0.11566
G0 F6000 X107.424 Y104.03
G1 F1200 X105.339 Y101.944 E0.0981
G0 F6000 X105.904 Y101.944
G1 F1200 X107.616 Y103.656 E0.08053
G0 F6000 X107.809 Y103.283
G1 F1200 X106.47 Y101.944 E0.06298
G0 F6000 X107.036 Y101.944
G1 F1200 X108.135 Y103.044 E0.05172
G0 F6000 X108.701 Y103.044
G1 F1200 X107.601 Y101.944 E0.05174
G0 F6000 X108.167 Y101.944
G1 F1200 X109.267 Y103.044 E0.05174
G0 F6000 X109.832 Y103.044
G1 F1200 X108.733 Y101.944 E0.05172
G0 F6000 X109.298 Y101.944
G1 F1200 X110.398 Y103.044 E0.05174
G0 F6000 X110.964 Y103.044
G1 F1200 X109.864 Y101.944 E0.05174
G0 F6000 X110.43 Y101.944
G1 F1200 X111.529 Y103.044 E0.05172
G0 F6000 X111.561 Y101.944
G1 F1200 X127.661 Y118.044 E0.75729
G0 F6000 X128.226 Y118.044
G1 F1200 X112.127 Y101.944 E0.75727
G0 F6000 X112.693 Y101.944
G1 F1200 X128.792 Y118.044 E0.75727
G0 F6000 X129.358 Y118.044
G1 F1200 X113.258 Y101.944 E0.75729
G0 F6000 X113.824 Y101.944
G1 F1200 X129.923 Y118.044 E0.75727
G0 F6000 X130.489 Y118.044
G1 F1200 X114.39 Y101.944 E0.75727
G0 F6000 X114.955 Y101.944
G1 F1200 X131.055 Y118.044 E0.75729
G0 F6000 X131.62 Y118.044
G1 F1200 X115.521 Y101.944 E0.75727
G0 F6000 X116.087 Y101.944
G1 F1200 X132.186 Y118.044 E0.75727
G0 F6000 X132.752 Y118.044
G1 F1200 X116.652 Y101.944 E0.75729
G0 F6000 X117.218 Y101.944
G1 F1200 X133.317 Y118.044 E0.75727
