;FLAVOR:Marlin
;TIME:6750
;Filament used: 4.0957m
;Layer height: 0.2
;MINX:67.835
;MINY:67.834
;MINZ:0.2
;MAXX:152.165
;MAXY:152.165
;MAXZ:12
;Generated with Cura_SteamEngine master
M140 S100
M105
M190 S100
M104 S250
M105
M109 S250
M82 ;absolute extrusion mode
; Ender 3 Custom Start G-code
G92 E0 ; Reset Extruder
G28 ; Home all axes
G1 Z2.0 F3000 ; Move Z Axis up little to prevent scratching of Heat Bed
G1 X0.1 Y20 Z0.3 F5000.0 ; Move to start position
G1 X0.1 Y200.0 Z0.3 F1500.0 E15 ; Draw the first line
G1 X0.4 Y200.0 Z0.3 F5000.0 ; Move to side a little
G1 X0.4 Y20 Z0.3 F1500.0 E30 ; Draw the second line
G92 E0 ; Reset Extruder
G1 Z2.0 F3000 ; Move Z Axis up little to prevent scratching of Heat Bed
G1 X5 Y20 Z0.3 F5000.0 ; Move over to prevent blob squish
M83 ;relative extrusion mode
G1 F2700 E-5
;LAYER_COUNT:60
;LAYER:0
M107
;MESH:solar lepi.stl
G0 F6000 X126.4 Y150 Z0.2
;TYPE:WALL-INNER
G1 F2700 E5
G1 F1200 X126.799 Y150 E0.01327
G1 X137.999 Y150 E0.37251
G1 X138.799 Y150.001 E0.02661
G1 X149.804 Y150.003 E0.36603
G1 X150.003 Y150.003 E0.00662
G1 X150.003 Y149.804 E0.00428
G1 X150.003 Y124 E0.85824
G1 X111.488 Y124 E1.28101
G1 X111.48 Y123.977 E0.00081
G1 X111.029 Y123.572 E0.02016
G1 X110.005 Y122.629 E0.0463
G1 X108.516 Y123.981 E0.06689
G1 X108.51 Y124 E0.00066
G1 X69.997 Y124 E1.28095
G1 X69.997 Y149.804 E0.85824
G1 X69.997 Y150.003 E0.00662
G1 X70.196 Y150.003 E0.00428
G1 X93.2 Y150.002 E0.76512
G1 X126.4 Y150 E1.10424
G0 F6000 X126 Y149.6
G1 F1200 X126 Y137.8 E0.39247
G1 X119.668 Y137.8 E0.2106
G1 X119.667 Y137.8 E0.00003
G1 X119.361 Y137.8 E0.01018
G1 X119.485 Y138.08 E0.00592
G1 X124.615 Y149.6 E0.41943
G1 X126 Y149.6 E0.04607
G0 F6000 X125.6 Y149.2
;TYPE:WALL-OUTER
G1 F1200 X125.6 Y138.2 E0.36586
G1 X119.977 Y138.2 E0.18702
G1 X124.875 Y149.2 E0.40049
G1 X125.6 Y149.2 E0.02411
G0 F6000 X126.8 Y149.603
;TYPE:WALL-INNER
G1 F1200 X138 Y149.603 E0.37251
G1 X138 Y137.8 E0.39257
G1 X126.8 Y137.8 E0.37251
G1 X126.8 Y149.603 E0.39257
G0 F6000 X127.2 Y149.203
;TYPE:WALL-OUTER
G1 F1200 X137.6 Y149.203 E0.34591
G1 X137.6 Y138.2 E0.36596
G1 X127.2 Y138.2 E0.34591
G1 X127.2 Y149.203 E0.36596
G1 F2700 E-5
G0 F6000 X128.053 Y148.35
G0 X140.053 Y148.35
G0 X138.8 Y149.603
;TYPE:WALL-INNER
G1 F2700 E5
G1 F1200 X149.603 Y149.603 E0.35931
G1 X149.603 Y137.8 E0.39257
G1 X138.8 Y137.8 E0.35931
G1 X138.8 Y149.603 E0.39257
G0 F6000 X139.2 Y149.203
;TYPE:WALL-OUTER
G1 F1200 X149.203 Y149.203 E0.3327
G1 X149.203 Y138.2 E0.36596
G1 X139.2 Y138.2 E0.3327
G1 X139.2 Y149.203 E0.36596
G1 F2700 E-5
G0 F6000 X140.053 Y148.35
G0 X140.053 Y135.747
G0 X138.8 Y137
;TYPE:WALL-INNER
G1 F2700 E5
G1 F1200 X149.603 Y137 E0.35931
G1 X149.603 Y124.4 E0.41908
G1 X138.8 Y124.4 E0.35931
G1 X138.8 Y137 E0.41908
G0 F6000 X139.2 Y136.6
;TYPE:WALL-OUTER
G1 F1200 X149.203 Y136.6 E0.3327
G1 X149.203 Y124.8 E0.39247
G1 X139.2 Y124.8 E0.3327
G1 X139.2 Y136.6 E0.39247
G1 F2700 E-5
G0 F6000 X140.053 Y135.747
G0 X128.053 Y135.747
G0 X126.8 Y137
;TYPE:WALL-INNER
G1 F2700 E5
G1 F1200 X138 Y137 E0.37251
G1 X138 Y124.4 E0.41908
G1 X126.8 Y124.4 E0.37251
G1 X126.8 Y137 E0.41908
G0 F6000 X127.2 Y136.6
;TYPE:WALL-OUTER
G1 F1200 X137.6 Y136.6 E0.34591
G1 X137.6 Y124.8 E0.39247
G1 X127.2 Y124.8 E0.34591
G1 X127.2 Y136.6 E0.39247
G0 F6000 X126 Y137
;TYPE:WALL-INNER
G1 F1200 X126 Y124.4 E0.41908
G1 X113.702 Y124.4 E0.40903
G1 X113.701 Y124.4 E0.00003
G1 X113.395 Y124.4 E0.01018
G1 X113.519 Y124.68 E0.00592
G1 X119.005 Y137 E0.44855
G1 X126 Y137 E0.23265
G0 F6000 X125.6 Y136.6
;TYPE:WALL-OUTER
G1 F1200 X125.6 Y124.8 E0.39247
G1 X114.011 Y124.8 E0.38545
G1 X119.265 Y136.6 E0.42962
G1 X125.6 Y136.6 E0.2107
G1 F2700 E-5
G0 F6000 X124.747 Y135.747
G0 X120.502 Y113.329
G0 X120.502 Y115.419
;TYPE:WALL-INNER
G1 F2700 E5
G1 F1200 X122.176 Y115.155 E0.05637
G1 X123.686 Y114.386 E0.05636
G1 X124.886 Y113.186 E0.05644
G1 X125.655 Y111.675 E0.05639
G1 X125.919 Y110 E0.0564
G1 X125.655 Y108.325 E0.0564
G1 X124.886 Y106.814 E0.05639
G1 X123.686 Y105.614 E0.05644
G1 X122.176 Y104.845 E0.05636
G1 X120.502 Y104.58 E0.05637
G1 X118.828 Y104.845 E0.05637
G1 X117.317 Y105.614 E0.05639
G1 X116.117 Y106.814 E0.05644
G1 X115.349 Y108.325 E0.05638
G1 X115.084 Y110 E0.0564
G1 X115.349 Y111.675 E0.0564
G1 X116.117 Y113.186 E0.05638
G1 X117.317 Y114.386 E0.05644
G1 X118.828 Y115.155 E0.05639
G1 X120.502 Y115.419 E0.05637
G0 F6000 X120.502 Y115.014
G1 F1200 X122.051 Y114.77 E0.05216
G1 X123.448 Y114.058 E0.05215
G1 X124.558 Y112.948 E0.05221
G1 X125.27 Y111.55 E0.05218
G1 X125.514 Y110 E0.05219
G1 X125.27 Y108.45 E0.05219
G1 X124.558 Y107.052 E0.05218
G1 X123.448 Y105.942 E0.05221
G1 X122.051 Y105.23 E0.05215
G1 X120.502 Y104.985 E0.05216
G1 X118.953 Y105.23 E0.05216
G1 X117.555 Y105.942 E0.05218
G1 X116.445 Y107.052 E0.05221
G1 X115.734 Y108.45 E0.05217
G1 X115.489 Y110 E0.05219
G1 X115.734 Y111.55 E0.05219
G1 X116.445 Y112.948 E0.05217
G1 X117.555 Y114.058 E0.05221
G1 X118.953 Y114.77 E0.05218
G1 X120.502 Y115.014 E0.05216
G0 F6000 X120.502 Y114.609
G1 F1200 X121.926 Y114.385 E0.04794
G1 X123.21 Y113.73 E0.04794
G1 X124.23 Y112.71 E0.04798
G1 X124.885 Y111.425 E0.04797
G1 X125.109 Y110 E0.04798
G1 X124.885 Y108.575 E0.04798
G1 X124.23 Y107.29 E0.04797
G1 X123.21 Y106.27 E0.04798
G1 X121.926 Y105.615 E0.04794
G1 X120.502 Y105.39 E0.04795
G1 X119.078 Y105.615 E0.04795
G1 X117.793 Y106.27 E0.04797
G1 X116.773 Y107.29 E0.04798
G1 X116.119 Y108.575 E0.04796
G1 X115.894 Y110 E0.04798
G1 X116.119 Y111.425 E0.04798
G1 X116.773 Y112.71 E0.04796
G1 X117.793 Y113.73 E0.04798
G1 X119.078 Y114.385 E0.04797
G1 X120.502 Y114.609 E0.04794
G0 F6000 X120.502 Y114.204
;TYPE:WALL-OUTER
G1 F1200 X121.801 Y114 E0.04373
G1 X122.972 Y113.402 E0.04373
G1 X123.902 Y112.472 E0.04374
G1 X124.5 Y111.3 E0.04376
G1 X124.704 Y110 E0.04377
G1 X124.5 Y108.7 E0.04377
G1 X123.902 Y107.528 E0.04376
G1 X122.972 Y106.598 E0.04374
G1 X121.801 Y106 E0.04373
G1 X120.502 Y105.795 E0.04374
G1 X119.203 Y106 E0.04374
G1 X118.031 Y106.598 E0.04376
G1 X117.101 Y107.528 E0.04374
G1 X116.504 Y108.7 E0.04375
G1 X116.299 Y110 E0.04377
G1 X116.504 Y111.3 E0.04377
G1 X117.101 Y112.472 E0.04375
G1 X118.031 Y113.402 E0.04374
G1 X119.203 Y114 E0.04376
G1 X120.502 Y114.204 E0.04373
G0 F6000 X120.502 Y114.644
G1 F2700 E-5
G0 F6000 X120.502 Y113.329
G0 X117.119 Y94.413
G0 X111.653 Y94.347
G0 X111.653 Y84.253
G0 X115.29 Y84.185
G0 X113.5 Y74.165
G0 X113.5 Y72.5
;TYPE:WALL-INNER
G1 F2700 E5
G1 F1200 X106.5 Y72.5 E0.23282
G1 X106.5 Y69.997 E0.08325
G1 X69.997 Y69.997 E1.21409
G1 X69.997 Y96 E0.86486
G1 X150.003 Y96 E2.66101
G1 X150.003 Y69.997 E0.86486
G1 X113.5 Y69.997 E1.21409
G1 X113.5 Y72.5 E0.08325
G1 F2700 E-5
G0 F6000 X115.165 Y72.5
G0 X128.053 Y71.65
G0 X126.8 Y70.397
G1 F2700 E5
G1 F1200 X126.8 Y82.2 E0.39257
G1 X138 Y82.2 E0.37251
G1 X138 Y70.397 E0.39257
G1 X126.8 Y70.397 E0.37251
G1 F2700 E-5
G0 F6000 X128.053 Y71.65
G0 X128.053 Y80.947
G0 X127.2 Y81.8
;TYPE:WALL-OUTER
G1 F2700 E5
G1 F1200 X137.6 Y81.8 E0.34591
G1 X137.6 Y70.797 E0.36596
G1 X127.2 Y70.797 E0.34591
G1 X127.2 Y81.8 E0.36596
G1 F2700 E-5
G0 F6000 X128.053 Y80.947
G0 X140.053 Y80.947
G0 X138.8 Y82.2
;TYPE:WALL-INNER
G1 F2700 E5
G1 F1200 X149.603 Y82.2 E0.35931
G1 X149.603 Y70.397 E0.39257
G1 X138.8 Y70.397 E0.35931
G1 X138.8 Y82.2 E0.39257
G0 F6000 X139.2 Y81.8
;TYPE:WALL-OUTER
G1 F1200 X149.203 Y81.8 E0.3327
G1 X149.203 Y70.797 E0.36596
G1 X139.2 Y70.797 E0.3327
G1 X139.2 Y81.8 E0.36596
G1 F2700 E-5
G0 F6000 X140.053 Y80.947
G0 X140.053 Y94.347
G0 X138.8 Y95.6
;TYPE:WALL-INNER
G1 F2700 E5
G1 F1200 X149.603 Y95.6 E0.35931
G1 X149.603 Y83 E0.41908
G1 X138.8 Y83 E0.35931
G1 X138.8 Y95.6 E0.41908
G0 F6000 X139.2 Y95.2
;TYPE:WALL-OUTER
G1 F1200 X149.203 Y95.2 E0.3327
G1 X149.203 Y83.4 E0.39247
G1 X139.2 Y83.4 E0.3327
G1 X139.2 Y95.2 E0.39247
G1 F2700 E-5
G0 F6000 X140.053 Y94.347
G0 X128.053 Y94.347
G0 X126.8 Y95.6
;TYPE:WALL-INNER
G1 F2700 E5
G1 F1200 X138 Y95.6 E0.37251
G1 X138 Y83 E0.41908
G1 X126.8 Y83 E0.37251
G1 X126.8 Y95.6 E0.41908
G0 F6000 X127.2 Y95.2
;TYPE:WALL-OUTER
G1 F1200 X137.6 Y95.2 E0.34591
G1 X137.6 Y83.4 E0.39247
G1 X127.2 Y83.4 E0.34591
G1 X127.2 Y95.2 E0.39247
G1 F2700 E-5
G0 F6000 X128.053 Y94.347
G0 X124.815 Y94.347
G0 X111.653 Y94.347
G0 X108.347 Y94.347
G0 X109.6 Y95.6
;TYPE:WALL-INNER
G1 F2700 E5
G1 F1200 X109.6 Y83 E0.41908
G1 X94 Y83 E0.51886
G1 X94 Y95.6 E0.41908
G1 X109.6 Y95.6 E0.51886
G0 F6000 X109.2 Y95.2
;TYPE:WALL-OUTER
G1 F1200 X109.2 Y83.4 E0.39247
G1 X94.4 Y83.4 E0.49225
G1 X94.4 Y95.2 E0.39247
G1 X109.2 Y95.2 E0.49225
G0 F6000 X110.4 Y95.6
;TYPE:WALL-INNER
G1 F1200 X126 Y95.6 E0.51886
G1 X126 Y83 E0.41908
G1 X110.4 Y83 E0.51886
G1 X110.4 Y95.6 E0.41908
G0 F6000 X110.8 Y95.2
;TYPE:WALL-OUTER
G1 F1200 X125.6 Y95.2 E0.49225
G1 X125.6 Y83.4 E0.39247
G1 X110.8 Y83.4 E0.49225
G1 X110.8 Y95.2 E0.39247
G1 F2700 E-5
G0 F6000 X111.653 Y94.347
G0 X111.653 Y80.947
G0 X110.4 Y82.2
;TYPE:WALL-INNER
G1 F2700 E5
G1 F1200 X126 Y82.2 E0.51886
G1 X126 Y70.397 E0.39257
G1 X113.9 Y70.397 E0.40245
G1 X113.9 Y72.9 E0.08325
G1 X110.4 Y72.9 E0.11641
G1 X110.4 Y82.2 E0.30932
G0 F6000 X110.8 Y81.8
;TYPE:WALL-OUTER
G1 F1200 X125.6 Y81.8 E0.49225
G1 X125.6 Y70.797 E0.36596
G1 X114.3 Y70.797 E0.37584
G1 X114.3 Y73.3 E0.08325
G1 X110.8 Y73.3 E0.11641
G1 X110.8 Y81.8 E0.28271
G0 F6000 X109.6 Y82.2
;TYPE:WALL-INNER
G1 F1200 X109.6 Y72.9 E0.30932
G1 X106.1 Y72.9 E0.11641
G1 X106.1 Y70.397 E0.08325
G1 X94 Y70.397 E0.40245
G1 X94 Y82.2 E0.39257
G1 X109.6 Y82.2 E0.51886
G0 F6000 X109.2 Y81.8
;TYPE:WALL-OUTER
G1 F1200 X109.2 Y73.3 E0.28271
G1 X105.7 Y73.3 E0.11641
G1 X105.7 Y70.797 E0.08325
G1 X94.4 Y70.797 E0.37584
G1 X94.4 Y81.8 E0.36596
G1 X109.2 Y81.8 E0.49225
G1 F2700 E-5
G0 F6000 X108.347 Y80.947
G0 X91.947 Y80.947
G0 X93.2 Y82.2
;TYPE:WALL-INNER
G1 F2700 E5
G1 F1200 X93.2 Y70.397 E0.39257
G1 X82 Y70.397 E0.37251
G1 X82 Y82.2 E0.39257
G1 X93.2 Y82.2 E0.37251
G0 F6000 X92.8 Y81.8
;TYPE:WALL-OUTER
G1 F1200 X92.8 Y70.797 E0.36596
G1 X82.4 Y70.797 E0.34591
G1 X82.4 Y81.8 E0.36596
G1 X92.8 Y81.8 E0.34591
G1 F2700 E-5
G0 F6000 X91.947 Y80.947
G0 X79.947 Y80.947
G0 X81.2 Y82.2
;TYPE:WALL-INNER
G1 F2700 E5
G1 F1200 X81.2 Y70.397 E0.39257
G1 X70.397 Y70.397 E0.35931
G1 X70.397 Y82.2 E0.39257
G1 X81.2 Y82.2 E0.35931
G0 F6000 X80.8 Y81.8
;TYPE:WALL-OUTER
G1 F1200 X80.8 Y70.797 E0.36596
G1 X70.797 Y70.797 E0.3327
G1 X70.797 Y81.8 E0.36596
G1 X80.8 Y81.8 E0.3327
G1 F2700 E-5
G0 F6000 X79.947 Y80.947
G0 X79.947 Y94.347
G0 X81.2 Y95.6
;TYPE:WALL-INNER
G1 F2700 E5
G1 F1200 X81.2 Y83 E0.41908
G1 X70.397 Y83 E0.35931
G1 X70.397 Y95.6 E0.41908
G1 X81.2 Y95.6 E0.35931
G0 F6000 X80.8 Y95.2
;TYPE:WALL-OUTER
G1 F1200 X80.8 Y83.4 E0.39247
G1 X70.797 Y83.4 E0.3327
G1 X70.797 Y95.2 E0.39247
G1 X80.8 Y95.2 E0.3327
G1 F2700 E-5
G0 F6000 X79.947 Y94.347
G0 X91.947 Y94.347
G0 X93.2 Y95.6
;TYPE:WALL-INNER
G1 F2700 E5
G1 F1200 X93.2 Y83 E0.41908
G1 X82 Y83 E0.37251
G1 X82 Y95.6 E0.41908
G1 X93.2 Y95.6 E0.37251
G0 F6000 X92.8 Y95.2
;TYPE:WALL-OUTER
G1 F1200 X92.8 Y83.4 E0.39247
G1 X82.4 Y83.4 E0.34591
G1 X82.4 Y95.2 E0.39247
G1 X92.8 Y95.2 E0.34591
G1 F2700 E-5
G0 F6000 X91.947 Y94.347
G0 X99.498 Y113.329
G0 X99.498 Y115.419
;TYPE:WALL-INNER
G1 F2700 E5
G1 F1200 X101.172 Y115.155 E0.05637
G1 X102.683 Y114.386 E0.05639
G1 X103.883 Y113.186 E0.05644
G1 X104.651 Y111.675 E0.05638
G1 X104.916 Y110 E0.0564
G1 X104.651 Y108.325 E0.0564
G1 X103.883 Y106.814 E0.05638
G1 X102.683 Y105.614 E0.05644
G1 X101.172 Y104.845 E0.05639
G1 X99.498 Y104.58 E0.05637
G1 X97.824 Y104.845 E0.05637
G1 X96.314 Y105.614 E0.05636
G1 X95.114 Y106.814 E0.05644
G1 X94.345 Y108.325 E0.05639
G1 X94.08 Y110 E0.0564
G1 X94.345 Y111.675 E0.0564
G1 X95.114 Y113.186 E0.05639
G1 X96.314 Y114.386 E0.05644
G1 X97.824 Y115.155 E0.05636
G1 X99.498 Y115.419 E0.05637
G0 F6000 X99.498 Y115.014
G1 F1200 X101.047 Y114.77 E0.05216
G1 X102.445 Y114.058 E0.05218
G1 X103.555 Y112.948 E0.05221
G1 X104.266 Y111.55 E0.05217
G1 X104.511 Y110 E0.05219
G1 X104.266 Y108.45 E0.05219
G1 X103.555 Y107.052 E0.05217
G1 X102.445 Y105.942 E0.05221
G1 X101.047 Y105.23 E0.05218
G1 X99.498 Y104.985 E0.05216
G1 X97.949 Y105.23 E0.05216
G1 X96.552 Y105.942 E0.05215
G1 X95.442 Y107.052 E0.05221
G1 X94.73 Y108.45 E0.05218
G1 X94.485 Y110 E0.05219
G1 X94.73 Y111.55 E0.05219
G1 X95.442 Y112.948 E0.05218
G1 X96.552 Y114.058 E0.05221
G1 X97.949 Y114.77 E0.05215
G1 X99.498 Y115.014 E0.05216
G0 F6000 X99.498 Y114.609
G1 F1200 X100.922 Y114.385 E0.04794
G1 X102.207 Y113.73 E0.04797
G1 X103.227 Y112.71 E0.04798
G1 X103.881 Y111.425 E0.04796
G1 X104.106 Y110 E0.04798
G1 X103.881 Y108.575 E0.04798
G1 X103.227 Y107.29 E0.04796
G1 X102.207 Y106.27 E0.04798
G1 X100.922 Y105.615 E0.04797
G1 X99.498 Y105.39 E0.04795
G1 X98.074 Y105.615 E0.04795
G1 X96.79 Y106.27 E0.04794
G1 X95.77 Y107.29 E0.04798
G1 X95.115 Y108.575 E0.04797
G1 X94.89 Y110 E0.04798
G1 X95.115 Y111.425 E0.04798
G1 X95.77 Y112.71 E0.04797
G1 X96.79 Y113.73 E0.04798
G1 X98.074 Y114.385 E0.04794
G1 X99.498 Y114.609 E0.04794
G0 F6000 X99.498 Y114.204
;TYPE:WALL-OUTER
G1 F1200 X100.797 Y114 E0.04373
G1 X101.969 Y113.402 E0.04376
G1 X102.899 Y112.472 E0.04374
G1 X103.496 Y111.3 E0.04375
G1 X103.701 Y110 E0.04377
G1 X103.496 Y108.7 E0.04377
G1 X102.899 Y107.528 E0.04375
G1 X101.969 Y106.598 E0.04374
G1 X100.797 Y106 E0.04376
G1 X99.498 Y105.795 E0.04374
G1 X98.199 Y106 E0.04374
G1 X97.028 Y106.598 E0.04373
G1 X96.098 Y107.528 E0.04374
G1 X95.5 Y108.7 E0.04376
G1 X95.295 Y110 E0.04377
G1 X95.5 Y111.3 E0.04377
G1 X96.098 Y112.472 E0.04376
G1 X97.028 Y113.402 E0.04374
G1 X98.199 Y114 E0.04373
G1 X99.498 Y114.204 E0.04373
G0 F6000 X99.498 Y114.644
G1 F2700 E-5
G0 F6000 X99.498 Y113.329
G0 X95.253 Y135.747
G0 X94 Y137
;TYPE:WALL-INNER
G1 F2700 E5
G1 F1200 X100.995 Y137 E0.23265
G1 X106.481 Y124.68 E0.44855
G1 X106.605 Y124.4 E0.01019
G1 X106.299 Y124.4 E0.00591
G1 X106.298 Y124.4 E0.00003
G1 X94 Y124.4 E0.40903
G1 X94 Y137 E0.41908
G0 F6000 X94.4 Y136.6
;TYPE:WALL-OUTER
G1 F1200 X100.735 Y136.6 E0.2107
G1 X105.989 Y124.8 E0.42962
G1 X94.4 Y124.8 E0.38545
G1 X94.4 Y136.6 E0.39247
G0 F6000 X93.2 Y137
;TYPE:WALL-INNER
G1 F1200 X93.2 Y124.4 E0.41908
G1 X82 Y124.4 E0.37251
G1 X82 Y137 E0.41908
G1 X93.2 Y137 E0.37251
G0 F6000 X92.8 Y136.6
;TYPE:WALL-OUTER
G1 F1200 X92.8 Y124.8 E0.39247
G1 X82.4 Y124.8 E0.34591
G1 X82.4 Y136.6 E0.39247
G1 X92.8 Y136.6 E0.34591
G1 F2700 E-5
G0 F6000 X91.947 Y135.747
G0 X79.947 Y135.747
G0 X81.2 Y137
;TYPE:WALL-INNER
G1 F2700 E5
G1 F1200 X81.2 Y124.4 E0.41908
G1 X70.397 Y124.4 E0.35931
G1 X70.397 Y137 E0.41908
G1 X81.2 Y137 E0.35931
G0 F6000 X80.8 Y136.6
;TYPE:WALL-OUTER
G1 F1200 X80.8 Y124.8 E0.39247
G1 X70.797 Y124.8 E0.3327
G1 X70.797 Y136.6 E0.39247
G1 X80.8 Y136.6 E0.3327
G1 F2700 E-5
G0 F6000 X79.947 Y135.747
G0 X79.947 Y148.35
G0 X81.2 Y149.603
;TYPE:WALL-INNER
G1 F2700 E5
G1 F1200 X81.2 Y137.8 E0.39257
G1 X70.397 Y137.8 E0.35931
G1 X70.397 Y149.603 E0.39257
G1 X81.2 Y149.603 E0.35931
G0 F6000 X80.8 Y149.203
;TYPE:WALL-OUTER
G1 F1200 X80.8 Y138.2 E0.36596
G1 X70.797 Y138.2 E0.3327
G1 X70.797 Y149.203 E0.36596
G1 X80.8 Y149.203 E0.3327
G1 F2700 E-5
G0 F6000 X79.947 Y148.35
G0 X91.947 Y148.35
G0 X93.2 Y149.603
;TYPE:WALL-INNER
G1 F2700 E5
G1 F1200 X93.2 Y137.8 E0.39257
G1 X82 Y137.8 E0.37251
G1 X82 Y149.603 E0.39257
G1 X93.2 Y149.603 E0.37251
G0 F6000 X92.8 Y149.203
;TYPE:WALL-OUTER
G1 F1200 X92.8 Y138.2 E0.36596
G1 X82.4 Y138.2 E0.34591
G1 X82.4 Y149.203 E0.36596
G1 X92.8 Y149.203 E0.34591
G0 F6000 X94 Y149.6
;TYPE:WALL-INNER
G1 F1200 X95.385 Y149.6 E0.04607
G1 X100.515 Y138.08 E0.41943
G1 X100.639 Y137.8 E0.01019
G1 X100.333 Y137.8 E0.00591
G1 X100.332 Y137.8 E0.00003
G1 X94 Y137.8 E0.2106
G1 X94 Y149.6 E0.39247
G0 F6000 X94.4 Y149.2
;TYPE:WALL-OUTER
G1 F1200 X95.125 Y149.2 E0.02411
G1 X100.023 Y138.2 E0.40049
G1 X94.4 Y138.2 E0.18702
G1 X94.4 Y149.2 E0.36586
G0 F6000 X96.567 Y149.6
;TYPE:WALL-INNER
G1 F1200 X123.433 Y149.6 E0.89357
G1 X123.434 Y149.6 E0.00003
G1 X123.74 Y149.6 E0.01018
G1 X123.616 Y149.32 E0.00592
G1 X112.519 Y124.4 E0.90731
G1 X111.202 Y124.4 E0.0438
G1 X111.135 Y124.205 E0.00686
G1 X110.762 Y123.87 E0.01668
G1 X110.003 Y123.171 E0.03432
G1 X108.862 Y124.207 E0.05126
