;FLAVOR:Marlin
;TIME:1928
;Filament used: 0.932649m
;Layer height: 0.2
;MINX:76.133
;MINY:89.576
;MINZ:0.2
;MAXX:140.898
;MAXY:111.799
;MAXZ:25
;Generated with Cura_SteamEngine master
M140 S90
M105
M190 S90
M104 S240
M105
M109 S240
M82 ;absolute extrusion mode
; Ender 3 Custom Start G-code
G92 E0 ; Reset Extruder
G28 ; Home all axes
G1 Z2.0 F3000 ; Move Z Axis up little to prevent scratching of Heat Bed
G1 X0.1 Y20 Z0.3 F5000.0 ; Move to start position
G1 X0.1 Y200.0 Z0.3 F1500.0 E15 ; Draw the first line
G1 X0.4 Y200.0 Z0.3 F5000.0 ; Move to side a little
G1 X0.4 Y20 Z0.3 F1500.0 E30 ; Draw the second line
G92 E0 ; Reset Extruder
G1 Z2.0 F3000 ; Move Z Axis up little to prevent scratching of Heat Bed
G1 X5 Y20 Z0.3 F5000.0 ; Move over to prevent blob squish
G92 E0
G92 E0
G1 F2700 E-5
;LAYER_COUNT:125
;LAYER:0
M107
G0 F6000 X79.869 Y92.355 Z0.2
;TYPE:SKIRT
G1 F2700 E0
G1 F1200 X80.514 Y91.825 E0.02777
G1 X80.771 Y91.636 E0.03838
G1 X81.386 Y91.227 E0.06294
G1 X81.67 Y91.057 E0.07395
G1 X82.343 Y90.698 E0.09932
G1 X82.635 Y90.56 E0.11006
G1 X83.377 Y90.255 E0.13675
G1 X83.678 Y90.149 E0.14736
G1 X84.394 Y89.935 E0.17221
G1 X84.705 Y89.858 E0.18287
G1 X85.464 Y89.709 E0.2086
G1 X85.789 Y89.662 E0.21952
G1 X86.495 Y89.593 E0.24311
G1 X86.818 Y89.576 E0.25387
G1 X87.639 Y89.576 E0.28118
G1 X87.961 Y89.593 E0.2919
G1 X88.698 Y89.667 E0.31654
G1 X89.014 Y89.714 E0.32716
G1 X89.752 Y89.861 E0.35219
G1 X90.077 Y89.942 E0.36333
G1 X90.83 Y90.17 E0.3895
G1 X91.122 Y90.275 E0.39982
G1 X91.825 Y90.567 E0.42514
G1 X92.135 Y90.714 E0.43655
G1 X92.847 Y91.098 E0.46346
G1 X92.971 Y91.057 E0.4678
G1 X93.644 Y90.698 E0.49317
G1 X93.936 Y90.56 E0.50391
G1 X94.678 Y90.255 E0.53059
G1 X94.979 Y90.149 E0.54121
G1 X95.695 Y89.935 E0.56606
G1 X96.006 Y89.858 E0.57672
G1 X96.765 Y89.709 E0.60245
G1 X97.09 Y89.662 E0.61337
G1 X97.796 Y89.593 E0.63696
G1 X98.119 Y89.576 E0.64772
G1 X98.94 Y89.576 E0.67503
G1 X99.262 Y89.593 E0.68575
G1 X99.999 Y89.667 E0.71039
G1 X100.315 Y89.714 E0.72101
G1 X101.053 Y89.861 E0.74604
G1 X101.378 Y89.942 E0.75718
G1 X102.131 Y90.17 E0.78335
G1 X102.423 Y90.275 E0.79367
G1 X103.126 Y90.567 E0.81899
G1 X103.436 Y90.714 E0.8304
G1 X104.148 Y91.098 E0.8573
G1 X104.262 Y91.168 E0.86175
G1 X104.447 Y91.057 E0.86893
G1 X105.12 Y90.698 E0.8943
G1 X105.412 Y90.56 E0.90504
G1 X106.154 Y90.255 E0.93172
G1 X106.455 Y90.149 E0.94234
G1 X107.171 Y89.935 E0.96719
G1 X107.482 Y89.858 E0.97785
G1 X108.241 Y89.709 E1.00358
G1 X108.566 Y89.662 E1.0145
G1 X109.272 Y89.593 E1.03809
G1 X109.595 Y89.576 E1.04885
G1 X110.416 Y89.576 E1.07616
G1 X110.738 Y89.593 E1.08688
G1 X111.475 Y89.667 E1.11152
G1 X111.791 Y89.714 E1.12214
G1 X112.529 Y89.861 E1.14717
G1 X112.854 Y89.942 E1.15831
G1 X113.607 Y90.17 E1.18448
G1 X113.899 Y90.275 E1.1948
G1 X114.602 Y90.567 E1.22012
G1 X114.912 Y90.714 E1.23153
G1 X115.181 Y90.859 E1.24169
G1 X115.482 Y90.698 E1.25305
G1 X115.774 Y90.56 E1.26379
G1 X116.516 Y90.255 E1.29047
G1 X116.817 Y90.149 E1.30108
G1 X117.533 Y89.935 E1.32594
G1 X117.844 Y89.858 E1.3366
G1 X118.603 Y89.709 E1.36232
G1 X118.928 Y89.662 E1.37324
G1 X119.634 Y89.593 E1.39684
G1 X119.957 Y89.576 E1.4076
G1 X120.778 Y89.576 E1.4349
G1 X121.1 Y89.593 E1.44563
G1 X121.837 Y89.667 E1.47026
G1 X122.153 Y89.714 E1.48089
G1 X122.891 Y89.861 E1.50592
G1 X123.216 Y89.942 E1.51706
G1 X123.969 Y90.17 E1.54322
G1 X124.261 Y90.275 E1.55355
G1 X124.964 Y90.567 E1.57886
G1 X125.132 Y90.647 E1.58505
G1 X125.22 Y90.605 E1.5883
G1 X125.962 Y90.3 E1.61498
G1 X126.263 Y90.194 E1.62559
G1 X126.979 Y89.98 E1.65045
G1 X127.29 Y89.903 E1.6611
G1 X128.049 Y89.754 E1.68683
G1 X128.374 Y89.707 E1.69775
G1 X129.08 Y89.638 E1.72135
G1 X129.403 Y89.621 E1.7321
G1 X130.224 Y89.621 E1.75941
G1 X130.546 Y89.638 E1.77014
G1 X131.283 Y89.712 E1.79477
G1 X131.599 Y89.759 E1.8054
G1 X132.337 Y89.906 E1.83043
G1 X132.662 Y89.987 E1.84157
G1 X133.415 Y90.215 E1.86773
G1 X133.707 Y90.32 E1.87805
G1 X134.41 Y90.612 E1.90337
G1 X134.72 Y90.759 E1.91478
G1 X135.432 Y91.143 E1.94169
G1 X135.695 Y91.303 E1.95193
G1 X136.267 Y91.687 E1.97484
G1 X136.529 Y91.88 E1.98567
G1 X137.154 Y92.392 E2.01254
G1 X137.388 Y92.605 E2.02306
G1 X137.901 Y93.118 E2.04719
G1 X138.128 Y93.367 E2.0584
G1 X138.648 Y94.001 E2.08567
G1 X138.837 Y94.258 E2.09628
G1 X139.248 Y94.876 E2.12097
G1 X139.416 Y95.157 E2.13186
G1 X139.771 Y95.823 E2.15696
G1 X139.913 Y96.123 E2.168
G1 X140.221 Y96.871 E2.1949
G1 X140.322 Y97.158 E2.20502
G1 X140.531 Y97.855 E2.22922
G1 X140.612 Y98.179 E2.24033
G1 X140.759 Y98.919 E2.26543
G1 X140.805 Y99.227 E2.27578
G1 X140.881 Y99.985 E2.30112
G1 X140.898 Y100.321 E2.31231
G1 X140.897 Y101.125 E2.33905
G1 X140.88 Y101.448 E2.34981
G1 X140.806 Y102.185 E2.37445
G1 X140.758 Y102.508 E2.38531
G1 X140.603 Y103.281 E2.41153
G1 X140.523 Y103.596 E2.42234
G1 X140.311 Y104.293 E2.44657
G1 X140.207 Y104.585 E2.45688
G1 X139.904 Y105.315 E2.48317
G1 X139.761 Y105.616 E2.49425
G1 X139.396 Y106.296 E2.51992
G1 X139.226 Y106.578 E2.53087
G1 X138.815 Y107.193 E2.55547
G1 X138.621 Y107.455 E2.56632
G1 X138.12 Y108.064 E2.59255
G1 X137.907 Y108.298 E2.60307
G1 X137.368 Y108.835 E2.62838
G1 X137.13 Y109.05 E2.63904
G1 X136.525 Y109.544 E2.66502
G1 X136.256 Y109.742 E2.67613
G1 X135.652 Y110.144 E2.70026
G1 X135.381 Y110.307 E2.71078
G1 X134.678 Y110.683 E2.7373
G1 X134.38 Y110.823 E2.74825
G1 X133.647 Y111.122 E2.77458
G1 X133.348 Y111.227 E2.78512
G1 X132.65 Y111.437 E2.80936
G1 X132.333 Y111.516 E2.82023
G1 X131.557 Y111.668 E2.84653
G1 X131.237 Y111.714 E2.85728
G1 X130.536 Y111.782 E2.88071
G1 X130.212 Y111.799 E2.8915
G1 X129.393 Y111.799 E2.91874
G1 X129.07 Y111.782 E2.92949
G1 X128.33 Y111.708 E2.95423
G1 X128.008 Y111.66 E2.96506
G1 X127.255 Y111.509 E2.9906
G1 X126.937 Y111.429 E3.00151
G1 X126.21 Y111.208 E3.02678
G1 X125.914 Y111.102 E3.03724
G1 X125.198 Y110.805 E3.06302
G1 X125.038 Y110.729 E3.06891
G1 X124.934 Y110.778 E3.07273
G1 X124.201 Y111.077 E3.09906
G1 X123.902 Y111.182 E3.1096
G1 X123.204 Y111.392 E3.13385
G1 X122.887 Y111.471 E3.14471
G1 X122.111 Y111.623 E3.17101
G1 X121.791 Y111.669 E3.18177
G1 X121.09 Y111.737 E3.20519
G1 X120.766 Y111.754 E3.21598
G1 X119.947 Y111.754 E3.24322
G1 X119.624 Y111.737 E3.25398
G1 X118.884 Y111.663 E3.27872
G1 X118.562 Y111.615 E3.28954
G1 X117.809 Y111.464 E3.31509
G1 X117.491 Y111.384 E3.32599
G1 X116.764 Y111.163 E3.35127
G1 X116.468 Y111.057 E3.36172
G1 X115.752 Y110.76 E3.38751
G1 X115.453 Y110.618 E3.39852
G1 X115.181 Y110.472 E3.40878
G1 X114.87 Y110.638 E3.42051
G1 X114.572 Y110.778 E3.43146
G1 X113.839 Y111.077 E3.45779
G1 X113.54 Y111.182 E3.46833
G1 X112.842 Y111.392 E3.49257
G1 X112.525 Y111.471 E3.50344
G1 X111.749 Y111.623 E3.52974
G1 X111.429 Y111.669 E3.54049
G1 X110.728 Y111.737 E3.56392
G1 X110.404 Y111.754 E3.57471
G1 X109.585 Y111.754 E3.60195
G1 X109.262 Y111.737 E3.61271
G1 X108.522 Y111.663 E3.63744
G1 X108.2 Y111.615 E3.64827
G1 X107.447 Y111.464 E3.67381
G1 X107.129 Y111.384 E3.68472
G1 X106.402 Y111.163 E3.70999
G1 X106.106 Y111.057 E3.72045
G1 X105.39 Y110.76 E3.74623
G1 X105.091 Y110.618 E3.75724
G1 X104.391 Y110.241 E3.78368
G1 X104.262 Y110.163 E3.7887
G1 X104.097 Y110.262 E3.7951
G1 X103.394 Y110.638 E3.82161
G1 X103.096 Y110.778 E3.83256
G1 X102.363 Y111.077 E3.85889
G1 X102.064 Y111.182 E3.86943
G1 X101.366 Y111.392 E3.89368
G1 X101.049 Y111.471 E3.90454
G1 X100.273 Y111.623 E3.93084
G1 X99.953 Y111.669 E3.9416
G1 X99.252 Y111.737 E3.96502
G1 X98.928 Y111.754 E3.97581
G1 X98.109 Y111.754 E4.00305
G1 X97.786 Y111.737 E4.01381
G1 X97.046 Y111.663 E4.03855
G1 X96.724 Y111.615 E4.04937
G1 X95.971 Y111.464 E4.07492
G1 X95.653 Y111.384 E4.08582
G1 X94.926 Y111.163 E4.1111
G1 X94.63 Y111.057 E4.12155
G1 X93.914 Y110.76 E4.14734
G1 X93.615 Y110.618 E4.15834
G1 X92.915 Y110.241 E4.18479
G1 X92.873 Y110.216 E4.18641
G1 X92.796 Y110.262 E4.1894
G1 X92.093 Y110.638 E4.21591
G1 X91.795 Y110.778 E4.22686
G1 X91.062 Y111.077 E4.25319
G1 X90.763 Y111.182 E4.26373
G1 X90.065 Y111.392 E4.28798
G1 X89.748 Y111.471 E4.29884
G1 X88.972 Y111.623 E4.32514
G1 X88.652 Y111.669 E4.3359
G1 X87.951 Y111.737 E4.35932
G1 X87.627 Y111.754 E4.37011
G1 X86.808 Y111.754 E4.39735
G1 X86.485 Y111.737 E4.40811
G1 X85.745 Y111.663 E4.43285
G1 X85.423 Y111.615 E4.44367
G1 X84.67 Y111.464 E4.46922
G1 X84.352 Y111.384 E4.48012
G1 X83.625 Y111.163 E4.5054
G1 X83.329 Y111.057 E4.51585
G1 X82.613 Y110.76 E4.54164
G1 X82.314 Y110.618 E4.55264
G1 X81.614 Y110.241 E4.57909
G1 X81.347 Y110.079 E4.58948
G1 X80.761 Y109.685 E4.61296
G1 X80.486 Y109.482 E4.62433
G1 X79.861 Y108.969 E4.65122
G1 X79.633 Y108.761 E4.66149
G1 X79.104 Y108.23 E4.68642
G1 X78.878 Y107.98 E4.69763
G1 X78.38 Y107.369 E4.72384
G1 X78.194 Y107.116 E4.73429
G1 X77.785 Y106.502 E4.75883
G1 X77.612 Y106.213 E4.77003
G1 X77.247 Y105.528 E4.79585
G1 X77.111 Y105.239 E4.80647
G1 X76.807 Y104.496 E4.83317
G1 X76.703 Y104.199 E4.84364
G1 X76.496 Y103.507 E4.86766
G1 X76.417 Y103.19 E4.87853
G1 X76.271 Y102.453 E4.90351
G1 X76.225 Y102.144 E4.91391
G1 X76.15 Y101.389 E4.93914
G1 X76.133 Y101.053 E4.95033
G1 X76.134 Y100.246 E4.97717
G1 X76.151 Y99.925 E4.98786
G1 X76.225 Y99.191 E5.0124
G1 X76.273 Y98.868 E5.02326
G1 X76.424 Y98.112 E5.0489
G1 X76.503 Y97.798 E5.05967
G1 X76.726 Y97.065 E5.08515
G1 X76.833 Y96.767 E5.09568
G1 X77.128 Y96.058 E5.12123
G1 X77.269 Y95.761 E5.13216
G1 X77.637 Y95.075 E5.15805
G1 X77.806 Y94.795 E5.16893
G1 X78.224 Y94.173 E5.19386
G1 X78.418 Y93.912 E5.20467
G1 X78.917 Y93.307 E5.23076
G1 X79.126 Y93.078 E5.24107
G1 X79.621 Y92.582 E5.26437
G1 X79.869 Y92.355 E5.27556
G0 F6000 X80.139 Y92.65
G1 F1200 X80.751 Y92.148 E5.30188
G1 X81.008 Y91.959 E5.31249
G1 X81.591 Y91.571 E5.33579
G1 X81.875 Y91.401 E5.3468
G1 X82.514 Y91.06 E5.37089
G1 X82.806 Y90.922 E5.38163
G1 X83.51 Y90.632 E5.40695
G1 X83.811 Y90.526 E5.41757
G1 X84.491 Y90.323 E5.44117
G1 X84.802 Y90.246 E5.45182
G1 X85.521 Y90.105 E5.47619
G1 X85.846 Y90.058 E5.48712
G1 X86.516 Y89.992 E5.50951
G1 X86.839 Y89.975 E5.52027
G1 X87.618 Y89.975 E5.54618
G1 X87.94 Y89.992 E5.5569
G1 X88.639 Y90.063 E5.58027
G1 X88.955 Y90.11 E5.59089
G1 X89.656 Y90.249 E5.61466
G1 X89.981 Y90.33 E5.6258
G1 X90.695 Y90.547 E5.65062
G1 X90.987 Y90.652 E5.66095
G1 X91.654 Y90.929 E5.68497
G1 X91.964 Y91.076 E5.69638
G1 X92.639 Y91.44 E5.72188
G1 X92.874 Y91.583 E5.73103
G1 X93.176 Y91.401 E5.74276
G1 X93.815 Y91.06 E5.76685
G1 X94.107 Y90.922 E5.77759
G1 X94.811 Y90.632 E5.80292
G1 X95.112 Y90.526 E5.81353
G1 X95.792 Y90.323 E5.83714
G1 X96.103 Y90.246 E5.84779
G1 X96.822 Y90.105 E5.87216
G1 X97.147 Y90.058 E5.88308
G1 X97.817 Y89.992 E5.90548
G1 X98.14 Y89.975 E5.91623
G1 X98.919 Y89.975 E5.94214
G1 X99.241 Y89.992 E5.95287
G1 X99.94 Y90.063 E5.97624
G1 X100.256 Y90.11 E5.98686
G1 X100.957 Y90.249 E6.01063
G1 X101.282 Y90.33 E6.02177
G1 X101.996 Y90.547 E6.04659
G1 X102.288 Y90.652 E6.05691
G1 X102.955 Y90.929 E6.08093
G1 X103.265 Y91.076 E6.09234
G1 X103.94 Y91.44 E6.11785
G1 X104.203 Y91.6 E6.12809
G1 X104.263 Y91.641 E6.13051
G1 X104.368 Y91.571 E6.1347
G1 X104.652 Y91.401 E6.14571
G1 X105.291 Y91.06 E6.1698
G1 X105.583 Y90.922 E6.18055
G1 X106.287 Y90.632 E6.20587
G1 X106.588 Y90.526 E6.21648
G1 X107.268 Y90.323 E6.24009
G1 X107.579 Y90.246 E6.25074
G1 X108.298 Y90.105 E6.27511
G1 X108.623 Y90.058 E6.28603
G1 X109.293 Y89.992 E6.30843
G1 X109.616 Y89.975 E6.31918
G1 X110.395 Y89.975 E6.34509
G1 X110.717 Y89.992 E6.35582
G1 X111.416 Y90.063 E6.37919
G1 X111.732 Y90.11 E6.38981
G1 X112.433 Y90.249 E6.41358
G1 X112.758 Y90.33 E6.42472
G1 X113.472 Y90.547 E6.44954
G1 X113.764 Y90.652 E6.45986
G1 X114.431 Y90.929 E6.48389
G1 X114.741 Y91.076 E6.4953
G1 X115.18 Y91.313 E6.51189
G1 X115.653 Y91.06 E6.52973
G1 X115.945 Y90.922 E6.54047
G1 X116.649 Y90.632 E6.5658
G1 X116.95 Y90.526 E6.57641
G1 X117.63 Y90.323 E6.60001
G1 X117.941 Y90.246 E6.61067
G1 X118.66 Y90.105 E6.63504
G1 X118.985 Y90.058 E6.64596
G1 X119.655 Y89.992 E6.66835
G1 X119.978 Y89.975 E6.67911
G1 X120.757 Y89.975 E6.70502
G1 X121.079 Y89.992 E6.71575
G1 X121.778 Y90.063 E6.73911
G1 X122.094 Y90.11 E6.74974
G1 X122.795 Y90.249 E6.77351
G1 X123.12 Y90.33 E6.78465
G1 X123.834 Y90.547 E6.80947
G1 X124.126 Y90.652 E6.81979
G1 X124.793 Y90.929 E6.84381
G1 X125.13 Y91.09 E6.85623
G1 X125.391 Y90.967 E6.86583
G1 X126.095 Y90.677 E6.89115
G1 X126.396 Y90.571 E6.90177
G1 X127.076 Y90.368 E6.92537
G1 X127.387 Y90.291 E6.93603
G1 X128.106 Y90.15 E6.9604
G1 X128.431 Y90.103 E6.97132
G1 X129.101 Y90.037 E6.99371
G1 X129.424 Y90.02 E7.00447
G1 X130.203 Y90.02 E7.03038
G1 X130.525 Y90.037 E7.0411
G1 X131.224 Y90.108 E7.06447
G1 X131.54 Y90.155 E7.0751
G1 X132.241 Y90.294 E7.09887
G1 X132.566 Y90.375 E7.11001
G1 X133.28 Y90.592 E7.13483
G1 X133.572 Y90.697 E7.14515
G1 X134.239 Y90.974 E7.16917
G1 X134.549 Y91.121 E7.18058
G1 X135.224 Y91.485 E7.20609
G1 X135.487 Y91.645 E7.21633
G1 X136.03 Y92.009 E7.23807
G1 X136.292 Y92.202 E7.24889
G1 X136.884 Y92.688 E7.27437
G1 X137.118 Y92.901 E7.28489
G1 X137.606 Y93.388 E7.30782
G1 X137.833 Y93.637 E7.31903
G1 X138.325 Y94.238 E7.34486
G1 X138.514 Y94.495 E7.35547
G1 X138.904 Y95.082 E7.37891
G1 X139.072 Y95.363 E7.3898
G1 X139.41 Y95.994 E7.41361
G1 X139.552 Y96.294 E7.42465
G1 X139.843 Y97.003 E7.45014
G1 X139.944 Y97.29 E7.46026
G1 X140.143 Y97.952 E7.48325
G1 X140.224 Y98.276 E7.49436
G1 X140.364 Y98.978 E7.51817
G1 X140.41 Y99.286 E7.52853
G1 X140.482 Y100.005 E7.55256
G1 X140.499 Y100.341 E7.56375
G1 X140.498 Y101.104 E7.58913
G1 X140.481 Y101.427 E7.59989
G1 X140.411 Y102.126 E7.62325
G1 X140.363 Y102.449 E7.63411
G1 X140.215 Y103.183 E7.65902
G1 X140.135 Y103.498 E7.66983
G1 X139.934 Y104.159 E7.6928
G1 X139.83 Y104.451 E7.70311
G1 X139.543 Y105.143 E7.72803
G1 X139.4 Y105.444 E7.73911
G1 X139.054 Y106.089 E7.76346
G1 X138.884 Y106.371 E7.77441
G1 X138.493 Y106.955 E7.79779
G1 X138.299 Y107.217 E7.80863
G1 X137.824 Y107.794 E7.83349
G1 X137.611 Y108.028 E7.84401
G1 X137.1 Y108.538 E7.86802
G1 X136.862 Y108.753 E7.87869
G1 X136.288 Y109.222 E7.90334
G1 X136.019 Y109.42 E7.91445
G1 X135.446 Y109.801 E7.93734
G1 X135.175 Y109.964 E7.94786
G1 X134.508 Y110.321 E7.97302
G1 X134.21 Y110.461 E7.98397
G1 X133.515 Y110.745 E8.00894
G1 X133.216 Y110.85 E8.01948
G1 X132.553 Y111.048 E8.0425
G1 X132.236 Y111.127 E8.05336
G1 X131.5 Y111.272 E8.07831
G1 X131.18 Y111.318 E8.08907
G1 X130.515 Y111.383 E8.11129
G1 X130.191 Y111.4 E8.12208
G1 X129.414 Y111.4 E8.14792
G1 X129.091 Y111.383 E8.15868
G1 X128.389 Y111.312 E8.18215
G1 X128.067 Y111.264 E8.19298
G1 X127.353 Y111.121 E8.2172
G1 X127.035 Y111.041 E8.2281
G1 X126.345 Y110.832 E8.25208
G1 X126.049 Y110.726 E8.26254
G1 X125.369 Y110.443 E8.28704
G1 X125.041 Y110.286 E8.29913
G1 X124.764 Y110.416 E8.30931
G1 X124.069 Y110.7 E8.33428
G1 X123.77 Y110.805 E8.34482
G1 X123.107 Y111.003 E8.36783
G1 X122.79 Y111.082 E8.3787
G1 X122.054 Y111.227 E8.40365
G1 X121.734 Y111.273 E8.4144
G1 X121.069 Y111.338 E8.43663
G1 X120.745 Y111.355 E8.44742
G1 X119.968 Y111.355 E8.47326
G1 X119.645 Y111.338 E8.48402
G1 X118.943 Y111.267 E8.50749
G1 X118.621 Y111.219 E8.51831
G1 X117.907 Y111.076 E8.54253
G1 X117.589 Y110.996 E8.55344
G1 X116.899 Y110.787 E8.57742
G1 X116.603 Y110.681 E8.58788
G1 X115.923 Y110.398 E8.61237
G1 X115.624 Y110.256 E8.62338
G1 X115.182 Y110.018 E8.64008
G1 X114.7 Y110.276 E8.65826
G1 X114.402 Y110.416 E8.66921
G1 X113.707 Y110.7 E8.69418
G1 X113.408 Y110.805 E8.70472
G1 X112.745 Y111.003 E8.72774
G1 X112.428 Y111.082 E8.7386
G1 X111.692 Y111.227 E8.76355
G1 X111.372 Y111.273 E8.77431
G1 X110.707 Y111.338 E8.79653
G1 X110.383 Y111.355 E8.80732
G1 X109.606 Y111.355 E8.83316
G1 X109.283 Y111.338 E8.84392
G1 X108.581 Y111.267 E8.86739
G1 X108.259 Y111.219 E8.87822
G1 X107.545 Y111.076 E8.90244
G1 X107.227 Y110.996 E8.91334
G1 X106.537 Y110.787 E8.93732
G1 X106.241 Y110.681 E8.94778
G1 X105.561 Y110.398 E8.97228
G1 X105.262 Y110.256 E8.98329
G1 X104.598 Y109.899 E9.00836
G1 X104.331 Y109.737 E9.01875
G1 X104.261 Y109.69 E9.02155
G1 X104.162 Y109.756 E9.02551
G1 X103.891 Y109.919 E9.03603
G1 X103.224 Y110.276 E9.06119
G1 X102.926 Y110.416 E9.07214
